; generated by PrusaSlicer 2.3.1+win64 on 2022-05-26 at 21:40:31 UTC

; 

; external perimeters extrusion width = 0.45mm
; perimeters extrusion width = 0.45mm
; infill extrusion width = 0.45mm
; solid infill extrusion width = 0.45mm
; top infill extrusion width = 0.40mm
; first layer extrusion width = 0.42mm

M73 P0 R26
M73 Q0 S26
M201 X1000 Y1000 Z200 E5000 ; sets maximum accelerations, mm/sec^2
M203 X200 Y200 Z12 E120 ; sets maximum feedrates, mm/sec
M204 P1250 R1250 T1250 ; sets acceleration (P, T) and retract acceleration (R), mm/sec^2
M205 X8.00 Y8.00 Z0.40 E4.50 ; sets the jerk limits, mm/sec
M205 S0 T0 ; sets the minimum extruding and travel feed rate, mm/sec
M107
;TYPE:Custom
M862.3 P "MK3S" ; printer model check
M862.1 P0.4 ; nozzle diameter check
M115 U3.11.0 ; tell printer latest fw version
G90 ; use absolute coordinates
M83 ; extruder relative mode
M104 S215 ; set extruder temp
M140 S60 ; set bed temp
M190 S60 ; wait for bed temp
M109 S215 ; wait for extruder temp
G28 W ; home all without mesh bed level
G80 ; mesh bed leveling
G1 Y-3.0 F1000.0 ; go outside print area
G92 E0.0
G1 X60.0 E9.0 F1000.0 ; intro line
G1 X100.0 E12.5 F1000.0 ; intro line
G92 E0.0
M221 S95

; Don't change E values below. Excessive value can damage the printer.

M907 E538 ; set extruder motor current
G21 ; set units to millimeters
G90 ; use absolute coordinates
M83 ; use relative distances for extrusion
M900 K0.05 ; Filament gcode LA 1.5
M900 K30 ; Filament gcode LA 1.0
;LAYER_CHANGE
;Z:0.2
;HEIGHT:0.2
;BEFORE_LAYER_CHANGE
G92 E0.0
;0.2


G1 E-0.80000 F2100.000
G1 Z0.400 F10800.000
;AFTER_LAYER_CHANGE
;0.2
G1 X101.504 Y86.128
G1 Z0.200
G1 E0.80000 F2100.000
M204 S1000
;TYPE:Skirt
;WIDTH:0.42
G1 F1200.000
G1 X102.856 Y84.534 E0.06553
G1 X104.784 Y82.637 E0.08482
G1 X106.851 Y80.938 E0.08387
G1 X109.095 Y79.408 E0.08517
G1 X111.934 Y77.861 E0.10138
G1 X114.481 Y76.784 E0.08671
G1 X117.070 Y75.959 E0.08518
G1 X119.696 Y75.376 E0.08434
G1 X122.363 Y75.030 E0.08434
G1 X125.044 Y74.923 E0.08411
G1 X127.764 Y75.060 E0.08541
G1 X131.036 Y75.556 E0.10375
G1 X133.667 Y76.230 E0.08518
G1 X136.227 Y77.139 E0.08517
G1 X139.219 Y78.552 E0.10374
G1 X141.547 Y79.952 E0.08518
G1 X144.218 Y81.950 E0.10457
G1 X146.219 Y83.787 E0.08518
G1 X148.046 Y85.797 E0.08517
G1 X150.028 Y88.475 E0.10446
G1 X151.416 Y90.810 E0.08518
G1 X152.799 Y93.771 E0.10244
G1 X153.710 Y96.374 E0.08648
G1 X154.371 Y99.009 E0.08518
G1 X154.851 Y102.286 E0.10386
G1 X154.974 Y105.000 E0.08518
G1 X154.796 Y108.255 E0.10221
G1 X154.367 Y111.014 E0.08755
G1 X153.704 Y113.648 E0.08517
G1 X152.585 Y116.746 E0.10327
G1 X151.406 Y119.210 E0.08565
G1 X150.017 Y121.541 E0.08506
G1 X148.046 Y124.203 E0.10386
G1 X146.219 Y126.213 E0.08518
G1 X143.798 Y128.395 E0.10221
G1 X141.547 Y130.048 E0.08755
G1 X139.219 Y131.448 E0.08517
G1 X136.227 Y132.861 E0.10374
G1 X133.667 Y133.770 E0.08518
G1 X131.036 Y134.444 E0.08517
G1 X127.761 Y134.940 E0.10386
G1 X125.040 Y135.077 E0.08542
G1 X121.694 Y134.906 E0.10505
G1 X118.402 Y134.367 E0.10457
G1 X115.754 Y133.654 E0.08601
G1 X112.637 Y132.465 E0.10458
G1 X109.672 Y130.939 E0.10457
G1 X107.372 Y129.444 E0.08601
G1 X104.773 Y127.353 E0.10458
G1 X102.412 Y124.976 E0.10505
G1 X100.332 Y122.354 E0.10493
G1 X98.853 Y120.044 E0.08601
G1 X97.347 Y117.068 E0.10458
G1 X96.176 Y113.929 E0.10505
G1 X95.490 Y111.312 E0.08482
G1 X95.036 Y108.595 E0.08637
G1 X95.026 Y101.626 E0.21850
M73 Q1 S26
G1 X95.487 Y98.703 E0.09280
M73 P1 R26
G1 X96.168 Y96.096 E0.08446
G1 X97.084 Y93.551 E0.08482
G1 X98.213 Y91.122 E0.08398
G1 X99.566 Y88.784 E0.08470
G1 X101.116 Y86.585 E0.08434
G1 X101.465 Y86.174 E0.01693
; printing object RFS_Base_Top.stl id:0 copy 0
;WIPE_START
G1 F8640.000
G1 X102.856 Y84.534 E-0.49647
G1 X103.670 Y83.734 E-0.26353
;WIPE_END
G1 E-0.04000 F2100.000
G1 Z0.600 F10800.000
G1 X114.911 Y97.024
G1 Z0.200
G1 E0.80000 F2100.000
;TYPE:Perimeter
G1 F1200.000
G1 X115.519 Y96.307 E0.02950
G1 X116.124 Y95.697 E0.02693
G1 X116.452 Y95.398 E0.01393
G1 X117.105 Y94.861 E0.02649
G1 X117.469 Y94.592 E0.01419
G1 X117.831 Y94.342 E0.01378
G1 X118.562 Y93.892 E0.02692
G1 X118.951 Y93.679 E0.01393
G1 X119.729 Y93.303 E0.02707
G1 X120.517 Y92.986 E0.02664
G1 X120.945 Y92.839 E0.01419
G1 X121.365 Y92.710 E0.01378
G1 X122.203 Y92.500 E0.02707
G1 X123.053 Y92.346 E0.02707
G1 X123.488 Y92.291 E0.01377
G1 X123.926 Y92.250 E0.01377
G1 X124.775 Y92.213 E0.02665
G1 X125.651 Y92.235 E0.02749
G1 X126.094 Y92.269 E0.01394
G1 X126.951 Y92.379 E0.02707
G1 X127.798 Y92.546 E0.02707
G1 X128.224 Y92.653 E0.01377
G1 X128.646 Y92.775 E0.01377
G1 X129.463 Y93.055 E0.02707
G1 X130.258 Y93.391 E0.02707
G1 X130.658 Y93.584 E0.01393
G1 X131.411 Y93.996 E0.02692
G1 X131.785 Y94.227 E0.01377
G1 X132.151 Y94.470 E0.01377
G1 X132.845 Y94.983 E0.02707
G1 X133.503 Y95.542 E0.02707
G1 X133.823 Y95.844 E0.01377
G1 X134.132 Y96.156 E0.01377
G1 X134.699 Y96.789 E0.02665
G1 X135.242 Y97.483 E0.02765
G1 X135.718 Y98.188 E0.02665
G1 X135.955 Y98.579 E0.01435
G1 X136.355 Y99.324 E0.02650
G1 X136.551 Y99.737 E0.01435
G1 X136.878 Y100.531 E0.02693
G1 X137.026 Y100.950 E0.01393
G1 X137.270 Y101.773 E0.02692
G1 X137.374 Y102.200 E0.01377
G1 X137.463 Y102.630 E0.01377
G1 X137.593 Y103.479 E0.02692
G1 X137.639 Y103.921 E0.01393
G1 X137.682 Y104.783 E0.02707
G1 X137.668 Y105.632 E0.02665
G1 X137.638 Y106.089 E0.01435
G1 X137.536 Y106.942 E0.02693
G1 X137.462 Y107.375 E0.01377
G1 X137.373 Y107.805 E0.01377
G1 X137.155 Y108.641 E0.02707
G1 X136.881 Y109.459 E0.02707
G1 X136.719 Y109.873 E0.01393
G1 X136.364 Y110.660 E0.02707
G1 X135.955 Y111.421 E0.02707
G1 X135.726 Y111.801 E0.01393
G1 X135.245 Y112.512 E0.02692
G1 X134.981 Y112.863 E0.01377
G1 X134.705 Y113.205 E0.01377
G1 X134.129 Y113.848 E0.02707
G1 X133.511 Y114.451 E0.02707
G1 X133.177 Y114.744 E0.01393
G1 X132.505 Y115.278 E0.02692
G1 X132.143 Y115.536 E0.01393
G1 X131.416 Y116.001 E0.02707
G1 X130.658 Y116.416 E0.02707
G1 X130.258 Y116.609 E0.01393
G1 X129.467 Y116.943 E0.02692
G1 X129.050 Y117.094 E0.01393
G1 X128.229 Y117.346 E0.02692
G1 X127.798 Y117.454 E0.01393
G1 X126.956 Y117.620 E0.02692
G1 X126.521 Y117.684 E0.01377
G1 X126.085 Y117.732 E0.01377
G1 X125.223 Y117.783 E0.02707
G1 X124.359 Y117.776 E0.02707
G1 X123.921 Y117.750 E0.01377
G1 X123.483 Y117.709 E0.01377
G1 X122.634 Y117.585 E0.02692
G1 X122.198 Y117.499 E0.01393
G1 X121.361 Y117.289 E0.02707
G1 X120.552 Y117.026 E0.02665
G1 X120.129 Y116.865 E0.01419
G1 X119.724 Y116.694 E0.01378
G1 X118.951 Y116.321 E0.02692
G1 X118.562 Y116.108 E0.01393
G1 X117.838 Y115.662 E0.02665
G1 X117.120 Y115.151 E0.02765
G1 X116.452 Y114.602 E0.02708
G1 X116.124 Y114.303 E0.01393
G1 X115.520 Y113.694 E0.02692
G1 X115.223 Y113.363 E0.01393
G1 X114.681 Y112.691 E0.02707
G1 X114.185 Y111.984 E0.02707
G1 X113.952 Y111.612 E0.01377
G1 X113.731 Y111.232 E0.01377
G1 X113.338 Y110.469 E0.02692
G1 X113.155 Y110.064 E0.01393
G1 X112.842 Y109.265 E0.02692
G1 X112.701 Y108.843 E0.01393
G1 X112.470 Y108.016 E0.02692
G1 X112.373 Y107.583 E0.01393
G1 X112.227 Y106.732 E0.02707
G1 X112.139 Y105.873 E0.02707
G1 X112.117 Y105.429 E0.01393
G1 X112.117 Y104.571 E0.02692
G1 X112.139 Y104.127 E0.01393
G1 X112.227 Y103.268 E0.02707
G1 X112.371 Y102.431 E0.02665
G1 X112.470 Y101.984 E0.01435
G1 X112.697 Y101.170 E0.02650
G1 X112.842 Y100.736 E0.01435
G1 X113.155 Y99.936 E0.02693
G1 X113.338 Y99.531 E0.01393
G1 X113.724 Y98.780 E0.02649
G1 X113.952 Y98.389 E0.01419
G1 X114.185 Y98.016 E0.01378
G1 X114.681 Y97.309 E0.02707
G1 X114.873 Y97.071 E0.00961
G1 X115.167 Y97.308 F10800.000
;TYPE:External perimeter
G1 F1200.000
G1 X115.794 Y96.565 E0.03048
G1 X116.385 Y95.969 E0.02632
G1 X116.699 Y95.683 E0.01333
G1 X117.337 Y95.159 E0.02589
G1 X117.688 Y94.899 E0.01369
G1 X118.037 Y94.659 E0.01327
G1 X118.751 Y94.218 E0.02631
G1 X119.124 Y94.014 E0.01333
G1 X119.881 Y93.649 E0.02637
G1 X120.649 Y93.340 E0.02595
G1 X121.062 Y93.197 E0.01369
G1 X121.467 Y93.073 E0.01327
G1 X122.282 Y92.868 E0.02637
G1 X123.110 Y92.719 E0.02637
G1 X123.530 Y92.665 E0.01327
G1 X123.951 Y92.626 E0.01327
G1 X124.778 Y92.591 E0.02595
G1 X125.632 Y92.612 E0.02679
G1 X126.056 Y92.644 E0.01333
G1 X126.890 Y92.751 E0.02637
G1 X127.715 Y92.914 E0.02637
G1 X128.126 Y93.017 E0.01327
G1 X128.533 Y93.134 E0.01327
G1 X129.328 Y93.408 E0.02637
G1 X130.103 Y93.735 E0.02637
G1 X130.486 Y93.920 E0.01333
G1 X131.222 Y94.323 E0.02631
G1 X131.582 Y94.544 E0.01327
G1 X131.935 Y94.779 E0.01327
G1 X132.611 Y95.279 E0.02637
G1 X133.252 Y95.823 E0.02637
G1 X133.560 Y96.114 E0.01327
G1 X133.858 Y96.414 E0.01327
G1 X134.410 Y97.031 E0.02595
G1 X134.937 Y97.705 E0.02684
G1 X135.401 Y98.391 E0.02595
G1 X135.628 Y98.766 E0.01374
G1 X136.018 Y99.494 E0.02590
G1 X136.206 Y99.890 E0.01375
G1 X136.526 Y100.666 E0.02632
G1 X136.667 Y101.067 E0.01333
G1 X136.906 Y101.871 E0.02631
G1 X137.006 Y102.283 E0.01327
G1 X137.091 Y102.697 E0.01327
G1 X137.219 Y103.526 E0.02631
G1 X137.262 Y103.949 E0.01333
G1 X137.305 Y104.789 E0.02637
G1 X137.291 Y105.617 E0.02595
G1 X137.262 Y106.054 E0.01375
G1 X137.163 Y106.888 E0.02632
G1 X137.091 Y107.305 E0.01327
G1 X137.005 Y107.719 E0.01327
G1 X136.793 Y108.533 E0.02637
G1 X136.527 Y109.331 E0.02637
G1 X136.372 Y109.726 E0.01333
G1 X136.025 Y110.493 E0.02637
G1 X135.628 Y111.234 E0.02637
G1 X135.408 Y111.598 E0.01333
G1 X134.938 Y112.293 E0.02631
G1 X134.683 Y112.631 E0.01327
G1 X134.417 Y112.960 E0.01327
G1 X133.856 Y113.587 E0.02637
G1 X133.254 Y114.174 E0.02637
G1 X132.935 Y114.455 E0.01333
G1 X132.278 Y114.977 E0.02631
G1 X131.932 Y115.224 E0.01333
G1 X131.223 Y115.677 E0.02637
G1 X130.486 Y116.080 E0.02637
G1 X130.103 Y116.265 E0.01333
G1 X129.330 Y116.591 E0.02631
G1 X128.930 Y116.736 E0.01333
G1 X128.128 Y116.982 E0.02631
G1 X127.715 Y117.086 E0.01333
G1 X126.892 Y117.249 E0.02631
G1 X126.473 Y117.310 E0.01327
G1 X126.053 Y117.356 E0.01327
G1 X125.213 Y117.406 E0.02637
G1 X124.372 Y117.399 E0.02637
G1 X123.949 Y117.374 E0.01327
G1 X123.528 Y117.334 E0.01327
G1 X122.698 Y117.214 E0.02631
G1 X122.281 Y117.131 E0.01333
G1 X121.465 Y116.926 E0.02637
G1 X120.678 Y116.671 E0.02595
G1 X120.270 Y116.515 E0.01369
G1 X119.880 Y116.351 E0.01327
G1 X119.124 Y115.986 E0.02631
G1 X118.751 Y115.782 E0.01333
G1 X118.046 Y115.348 E0.02595
G1 X117.349 Y114.851 E0.02684
G1 X116.699 Y114.317 E0.02637
G1 X116.385 Y114.031 E0.01333
G1 X115.794 Y113.435 E0.02631
G1 X115.511 Y113.118 E0.01333
G1 X114.982 Y112.464 E0.02637
G1 X114.499 Y111.775 E0.02637
G1 X114.274 Y111.417 E0.01327
G1 X114.062 Y111.051 E0.01327
G1 X113.678 Y110.305 E0.02631
G1 X113.503 Y109.917 E0.01333
G1 X113.196 Y109.136 E0.02631
G1 X113.062 Y108.733 E0.01333
G1 X112.836 Y107.924 E0.02631
G1 X112.743 Y107.510 E0.01333
G1 X112.601 Y106.681 E0.02637
G1 X112.516 Y105.844 E0.02637
G1 X112.494 Y105.420 E0.01333
G1 X112.494 Y104.580 E0.02631
G1 X112.516 Y104.156 E0.01333
G1 X112.601 Y103.319 E0.02637
G1 X112.741 Y102.504 E0.02595
G1 X112.836 Y102.076 E0.01374
G1 X113.058 Y101.280 E0.02590
G1 X113.196 Y100.864 E0.01375
G1 X113.503 Y100.083 E0.02632
G1 X113.678 Y99.695 E0.01333
G1 X114.055 Y98.961 E0.02589
G1 X114.274 Y98.583 E0.01369
G1 X114.499 Y98.225 E0.01327
G1 X115.129 Y97.354 E0.03368
G1 X115.020 Y96.936 F10800.000
;WIPE_START
G1 F8640.000
G1 X115.794 Y96.565 E-0.23830
G1 X116.385 Y95.969 E-0.19381
G1 X116.699 Y95.683 E-0.09813
G1 X117.337 Y95.159 E-0.19068
G1 X117.473 Y95.058 E-0.03907
;WIPE_END
G1 E-0.04000 F2100.000
G1 Z0.600 F10800.000
G1 X113.862 Y87.658
G1 Z0.200
G1 E0.80000 F2100.000
;TYPE:Perimeter
G1 F1200.000
G1 X113.412 Y87.697 E0.01415
G1 X112.962 Y87.658 E0.01415
G1 X112.526 Y87.541 E0.01415
G1 X112.129 Y87.355 E0.01375
G1 X111.917 Y87.220 E0.00788
G1 X111.591 Y86.947 E0.01334
G1 X111.421 Y86.761 E0.00788
G1 X111.169 Y86.402 E0.01375
G1 X110.979 Y85.993 E0.01415
G1 X110.862 Y85.557 E0.01415
G1 X110.822 Y85.107 E0.01415
G1 X110.862 Y84.658 E0.01415
G1 X110.979 Y84.222 E0.01415
G1 X111.169 Y83.813 E0.01413
G1 X111.408 Y83.471 E0.01309
G1 X111.589 Y83.270 E0.00849
G1 X111.927 Y82.986 E0.01383
G1 X112.318 Y82.761 E0.01415
G1 X112.730 Y82.611 E0.01375
G1 X112.974 Y82.556 E0.00786
G1 X113.391 Y82.519 E0.01311
G1 X113.860 Y82.557 E0.01475
G1 X114.285 Y82.671 E0.01381
G1 X114.517 Y82.767 E0.00788
G1 X114.897 Y82.986 E0.01375
G1 X115.243 Y83.276 E0.01415
G1 X115.525 Y83.612 E0.01375
G1 X115.660 Y83.824 E0.00788
G1 X115.845 Y84.222 E0.01375
G1 X115.962 Y84.658 E0.01415
G1 X116.001 Y85.107 E0.01415
G1 X115.962 Y85.557 E0.01415
G1 X115.845 Y85.992 E0.01413
G1 X115.670 Y86.371 E0.01309
G1 X115.526 Y86.601 E0.00849
G1 X115.251 Y86.929 E0.01342
G1 X115.066 Y87.098 E0.00786
G1 X114.725 Y87.339 E0.01311
G1 X114.299 Y87.540 E0.01475
G1 X113.920 Y87.642 E0.01233
G1 X113.822 Y87.278 F10800.000
;TYPE:External perimeter
G1 F1200.000
G1 X113.412 Y87.318 E0.01292
G1 X113.028 Y87.285 E0.01208
G1 X112.656 Y87.185 E0.01208
G1 X112.311 Y87.024 E0.01194
G1 X112.140 Y86.916 E0.00633
G1 X111.852 Y86.674 E0.01179
G1 X111.716 Y86.525 E0.00633
G1 X111.497 Y86.213 E0.01194
G1 X111.334 Y85.864 E0.01208
G1 X111.234 Y85.491 E0.01208
G1 X111.201 Y85.107 E0.01208
G1 X111.234 Y84.723 E0.01208
G1 X111.334 Y84.351 E0.01208
G1 X111.497 Y84.002 E0.01208
G1 X111.704 Y83.706 E0.01133
G1 X111.851 Y83.542 E0.00692
G1 X112.144 Y83.296 E0.01197
G1 X112.477 Y83.104 E0.01208
G1 X112.835 Y82.973 E0.01194
G1 X113.032 Y82.930 E0.00633
G1 X113.392 Y82.897 E0.01134
G1 X113.795 Y82.930 E0.01267
G1 X114.164 Y83.029 E0.01196
G1 X114.350 Y83.106 E0.00633
G1 X114.680 Y83.296 E0.01194
G1 X114.975 Y83.544 E0.01208
G1 X115.220 Y83.836 E0.01194
G1 X115.329 Y84.006 E0.00633
G1 X115.490 Y84.351 E0.01194
G1 X115.589 Y84.723 E0.01208
G1 X115.623 Y85.107 E0.01208
G1 X115.589 Y85.491 E0.01208
G1 X115.490 Y85.863 E0.01208
G1 X115.338 Y86.191 E0.01133
G1 X115.221 Y86.378 E0.00692
G1 X114.978 Y86.667 E0.01182
G1 X114.830 Y86.804 E0.00633
G1 X114.534 Y87.012 E0.01134
G1 X114.169 Y87.185 E0.01267
G1 X113.880 Y87.262 E0.00938
G1 X113.689 Y87.655 F10800.000
;WIPE_START
G1 F8640.000
G1 X113.412 Y87.318 E-0.10883
G1 X113.028 Y87.285 E-0.08899
G1 X112.656 Y87.185 E-0.08899
G1 X112.311 Y87.024 E-0.08793
G1 X112.140 Y86.916 E-0.04665
G1 X111.852 Y86.674 E-0.08686
G1 X111.716 Y86.525 E-0.04665
G1 X111.497 Y86.213 E-0.08793
G1 X111.334 Y85.864 E-0.08899
G1 X111.303 Y85.746 E-0.02819
;WIPE_END
G1 E-0.04000 F2100.000
G1 Z0.600 F10800.000
G1 X145.512 Y103.925
G1 Z0.200
G1 E0.80000 F2100.000
;TYPE:Perimeter
G1 F1200.000
G1 X145.744 Y103.516 E0.01475
G1 X146.036 Y103.169 E0.01421
G1 X146.382 Y102.879 E0.01415
G1 X146.773 Y102.653 E0.01415
G1 X147.185 Y102.503 E0.01375
G1 X147.429 Y102.449 E0.00786
G1 X147.846 Y102.411 E0.01311
G1 X148.315 Y102.449 E0.01475
G1 X148.753 Y102.567 E0.01421
G1 X149.161 Y102.757 E0.01413
G1 X149.504 Y102.996 E0.01309
G1 X149.705 Y103.177 E0.00849
G1 X149.988 Y103.515 E0.01383
G1 X150.207 Y103.894 E0.01375
G1 X150.303 Y104.126 E0.00786
G1 X150.412 Y104.530 E0.01311
G1 X150.457 Y104.998 E0.01475
G1 X150.418 Y105.437 E0.01381
G1 X150.364 Y105.682 E0.00786
G1 X150.222 Y106.075 E0.01311
G1 X149.989 Y106.484 E0.01475
G1 X149.698 Y106.831 E0.01421
G1 X149.352 Y107.121 E0.01415
G1 X148.961 Y107.347 E0.01415
G1 X148.537 Y107.501 E0.01415
G1 X148.105 Y107.577 E0.01375
G1 X147.854 Y107.588 E0.00788
G1 X147.430 Y107.551 E0.01334
G1 X147.185 Y107.497 E0.00786
G1 X146.792 Y107.355 E0.01311
G1 X146.383 Y107.122 E0.01475
G1 X146.036 Y106.831 E0.01421
G1 X145.746 Y106.485 E0.01415
G1 X145.526 Y106.106 E0.01375
G1 X145.430 Y105.874 E0.00786
G1 X145.321 Y105.470 E0.01311
G1 X145.277 Y105.002 E0.01475
G1 X145.316 Y104.563 E0.01381
G1 X145.370 Y104.318 E0.00786
G1 X145.491 Y103.982 E0.01123
G1 X145.846 Y104.110 F10800.000
;TYPE:External perimeter
G1 F1200.000
G1 X146.055 Y103.732 E0.01353
G1 X146.303 Y103.437 E0.01211
G1 X146.599 Y103.189 E0.01208
G1 X146.932 Y102.996 E0.01208
G1 X147.290 Y102.866 E0.01194
G1 X147.487 Y102.822 E0.00633
G1 X147.847 Y102.790 E0.01134
G1 X148.250 Y102.822 E0.01267
G1 X148.623 Y102.922 E0.01211
G1 X148.972 Y103.085 E0.01208
G1 X149.269 Y103.292 E0.01133
G1 X149.433 Y103.439 E0.00692
G1 X149.678 Y103.732 E0.01197
