; generated by PrusaSlicer 2.3.1+win64 on 2022-05-26 at 21:40:45 UTC

; 

; external perimeters extrusion width = 0.45mm
; perimeters extrusion width = 0.45mm
; infill extrusion width = 0.45mm
; solid infill extrusion width = 0.45mm
; top infill extrusion width = 0.40mm
; first layer extrusion width = 0.42mm

M73 P0 R22
M73 Q0 S22
M201 X1000 Y1000 Z200 E5000 ; sets maximum accelerations, mm/sec^2
M203 X200 Y200 Z12 E120 ; sets maximum feedrates, mm/sec
M204 P1250 R1250 T1250 ; sets acceleration (P, T) and retract acceleration (R), mm/sec^2
M205 X8.00 Y8.00 Z0.40 E4.50 ; sets the jerk limits, mm/sec
M205 S0 T0 ; sets the minimum extruding and travel feed rate, mm/sec
M107
;TYPE:Custom
M862.3 P "MK3S" ; printer model check
M862.1 P0.4 ; nozzle diameter check
M115 U3.11.0 ; tell printer latest fw version
G90 ; use absolute coordinates
M83 ; extruder relative mode
M104 S215 ; set extruder temp
M140 S60 ; set bed temp
M190 S60 ; wait for bed temp
M109 S215 ; wait for extruder temp
G28 W ; home all without mesh bed level
G80 ; mesh bed leveling
G1 Y-3.0 F1000.0 ; go outside print area
G92 E0.0
G1 X60.0 E9.0 F1000.0 ; intro line
G1 X100.0 E12.5 F1000.0 ; intro line
G92 E0.0
M221 S95

; Don't change E values below. Excessive value can damage the printer.

M907 E538 ; set extruder motor current
G21 ; set units to millimeters
G90 ; use absolute coordinates
M83 ; use relative distances for extrusion
M900 K0.05 ; Filament gcode LA 1.5
M900 K30 ; Filament gcode LA 1.0
;LAYER_CHANGE
;Z:0.2
;HEIGHT:0.2
;BEFORE_LAYER_CHANGE
G92 E0.0
;0.2


G1 E-0.80000 F2100.000
G1 Z0.400 F10800.000
;AFTER_LAYER_CHANGE
;0.2
G1 X119.202 Y86.199
G1 Z0.200
G1 E0.80000 F2100.000
M204 S1000
;TYPE:Skirt
;WIDTH:0.42
G1 F1200.000
G1 X131.756 Y86.173 E0.39364
G1 X132.274 Y86.231 E0.01633
G1 X134.092 Y86.697 E0.05886
G1 X137.033 Y87.714 E0.09755
G1 X138.779 Y88.519 E0.06029
G1 X139.888 Y89.397 E0.04436
G1 X140.367 Y89.958 E0.02312
G1 X140.853 Y90.733 E0.02869
G1 X145.898 Y100.708 E0.35049
G1 X146.256 Y101.734 E0.03406
G1 X146.455 Y102.798 E0.03394
G1 X148.023 Y118.017 E0.47972
G1 X147.970 Y119.042 E0.03218
G1 X147.787 Y119.869 E0.02655
G1 X147.405 Y120.810 E0.03182
G1 X146.848 Y121.680 E0.03242
G1 X146.073 Y122.490 E0.03515
G1 X145.138 Y123.136 E0.03563
G1 X143.934 Y123.626 E0.04076
G1 X142.813 Y123.815 E0.03563
G1 X114.639 Y123.827 E0.88339
G1 X113.879 Y123.773 E0.02388
G1 X107.428 Y122.817 E0.20449
G1 X105.971 Y122.284 E0.04865
G1 X104.710 Y121.488 E0.04674
G1 X103.849 Y120.688 E0.03684
G1 X103.173 Y119.822 E0.03446
G1 X102.728 Y119.052 E0.02790
G1 X102.304 Y118.001 E0.03551
G1 X102.055 Y116.927 E0.03458
G1 X101.974 Y115.789 E0.03577
G1 X102.073 Y114.656 E0.03565
G1 X102.345 Y113.571 E0.03506
G1 X102.801 Y112.504 E0.03641
G1 X114.851 Y89.446 E0.81572
M73 P1 R22
M73 Q1 S22
G1 X115.426 Y88.535 E0.03377
G1 X116.160 Y87.728 E0.03422
G1 X117.053 Y87.044 E0.03525
G1 X118.044 Y86.536 E0.03493
G1 X119.144 Y86.216 E0.03592
; printing object RFS_Sw_Jack_Mount.stl id:0 copy 0
;WIPE_START
G1 F8640.000
G1 X122.435 Y86.204 E-0.76000
;WIPE_END
G1 E-0.04000 F2100.000
G1 Z0.600 F10800.000
G1 X120.738 Y89.740
G1 Z0.200
G1 E0.80000 F2100.000
;TYPE:External perimeter
G1 F1200.000
G1 X130.562 Y89.740 E0.30802
G1 X130.562 Y97.340 E0.23829
G1 X133.267 Y97.340 E0.08482
G1 X133.588 Y97.374 E0.01012
G1 X133.947 Y97.498 E0.01189
G1 X134.194 Y97.644 E0.00901
G1 X134.452 Y97.876 E0.01087
G1 X134.643 Y98.140 E0.01021
G1 X134.725 Y98.300 E0.00563
G1 X134.827 Y98.615 E0.01039
G1 X134.861 Y98.934 E0.01005
G1 X134.861 Y108.066 E0.28635
G1 X134.828 Y108.380 E0.00988
G1 X134.781 Y108.553 E0.00563
G1 X134.649 Y108.851 E0.01021
G1 X134.554 Y108.997 E0.00546
G1 X134.445 Y109.132 E0.00546
G1 X134.198 Y109.354 E0.01039
G1 X133.911 Y109.519 E0.01039
G1 X133.749 Y109.582 E0.00546
G1 X133.581 Y109.627 E0.00546
G1 X133.267 Y109.660 E0.00988
G1 X130.063 Y109.662 E0.10046
G1 X130.060 Y111.440 E0.05574
G1 X139.660 Y111.440 E0.30100
G1 X139.660 Y120.260 E0.27654
G1 X117.440 Y120.260 E0.69669
G1 X117.440 Y111.440 E0.27654
G1 X119.872 Y111.440 E0.07625
G1 X119.858 Y109.367 E0.06501
G1 X119.448 Y109.356 E0.01284
G1 X119.127 Y109.288 E0.01030
G1 X118.959 Y109.223 E0.00563
G1 X118.672 Y109.058 E0.01039
G1 X118.422 Y108.832 E0.01056
G1 X118.224 Y108.560 E0.01056
G1 X118.087 Y108.252 E0.01056
G1 X118.017 Y107.922 E0.01056
G1 X118.016 Y99.799 E0.25470
G1 X118.128 Y97.809 E0.06250
G1 X118.169 Y96.327 E0.04649
G1 X118.146 Y95.347 E0.03073
G1 X118.043 Y94.357 E0.03123
G1 X118.017 Y93.849 E0.01594
G1 X118.017 Y92.679 E0.03667
G1 X118.103 Y92.310 E0.01189
G1 X118.222 Y92.049 E0.00901
G1 X118.320 Y91.899 E0.00560
G1 X118.541 Y91.652 E0.01039
G1 X118.809 Y91.458 E0.01039
G1 X118.969 Y91.376 E0.00563
G1 X119.279 Y91.275 E0.01021
G1 X119.456 Y91.247 E0.00562
G1 X120.738 Y91.241 E0.04021
G1 X120.738 Y89.800 E0.04518
G1 X120.832 Y89.351 F10800.000
;WIPE_START
G1 F8640.000
G1 X124.030 Y89.780 E-0.76000
;WIPE_END
G1 E-0.04000 F2100.000
G1 Z0.600 F10800.000
G1 X137.289 Y102.323
G1 Z0.200
G1 E0.80000 F2100.000
;TYPE:Perimeter
G1 F1200.000
G1 X137.555 Y101.971 E0.01383
G1 X137.881 Y101.674 E0.01383
G1 X138.255 Y101.442 E0.01383
G1 X138.654 Y101.287 E0.01340
G1 X138.894 Y101.231 E0.00775
G1 X139.300 Y101.192 E0.01279
G1 X139.758 Y101.231 E0.01439
G1 X140.184 Y101.353 E0.01389
G1 X140.579 Y101.549 E0.01383
G1 X140.931 Y101.815 E0.01383
G1 X141.219 Y102.131 E0.01340
G1 X141.359 Y102.335 E0.00777
G1 X141.549 Y102.718 E0.01340
G1 X141.670 Y103.142 E0.01383
G1 X141.711 Y103.581 E0.01383
G1 X141.670 Y104.020 E0.01383
G1 X141.549 Y104.444 E0.01383
G1 X141.353 Y104.839 E0.01383
G1 X141.087 Y105.191 E0.01383
G1 X140.761 Y105.488 E0.01383
G1 X140.398 Y105.713 E0.01340
G1 X140.171 Y105.813 E0.00777
G1 X139.760 Y105.930 E0.01340
G1 X139.321 Y105.971 E0.01383
G1 X138.882 Y105.930 E0.01383
G1 X138.457 Y105.810 E0.01383
G1 X138.075 Y105.619 E0.01340
G1 X137.871 Y105.479 E0.00775
G1 X137.569 Y105.205 E0.01279
G1 X137.290 Y104.841 E0.01439
G1 X137.092 Y104.444 E0.01389
G1 X136.972 Y104.020 E0.01383
G1 X136.931 Y103.581 E0.01383
G1 X136.972 Y103.142 E0.01383
G1 X137.092 Y102.718 E0.01383
G1 X137.262 Y102.377 E0.01195
G1 X137.600 Y102.545 F10800.000
;TYPE:External perimeter
G1 F1200.000
G1 X137.834 Y102.226 E0.01241
G1 X138.109 Y101.976 E0.01164
G1 X138.424 Y101.781 E0.01164
G1 X138.766 Y101.648 E0.01148
G1 X138.956 Y101.604 E0.00612
G1 X139.302 Y101.571 E0.01091
G1 X139.690 Y101.604 E0.01219
G1 X140.047 Y101.706 E0.01166
G1 X140.379 Y101.871 E0.01164
G1 X140.676 Y102.095 E0.01164
G1 X140.922 Y102.365 E0.01148
G1 X141.033 Y102.527 E0.00613
G1 X141.196 Y102.855 E0.01148
G1 X141.298 Y103.212 E0.01164
G1 X141.332 Y103.581 E0.01164
G1 X141.298 Y103.951 E0.01164
G1 X141.196 Y104.308 E0.01164
G1 X141.031 Y104.640 E0.01164
G1 X140.807 Y104.936 E0.01164
G1 X140.533 Y105.186 E0.01164
G1 X140.221 Y105.379 E0.01148
G1 X140.042 Y105.458 E0.00613
G1 X139.690 Y105.558 E0.01148
G1 X139.321 Y105.592 E0.01164
G1 X138.951 Y105.558 E0.01164
G1 X138.594 Y105.456 E0.01164
G1 X138.266 Y105.293 E0.01148
G1 X138.105 Y105.183 E0.00612
G1 X137.848 Y104.949 E0.01091
G1 X137.611 Y104.640 E0.01219
G1 X137.445 Y104.308 E0.01166
G1 X137.344 Y103.951 E0.01164
G1 X137.310 Y103.581 E0.01164
G1 X137.344 Y103.212 E0.01164
G1 X137.445 Y102.855 E0.01164
G1 X137.573 Y102.599 E0.00897
G1 X137.409 Y102.198 F10800.000
;WIPE_START
G1 F8640.000
G1 X137.834 Y102.226 E-0.10506
G1 X138.109 Y101.976 E-0.08569
G1 X138.424 Y101.781 E-0.08569
G1 X138.766 Y101.648 E-0.08457
G1 X138.956 Y101.604 E-0.04506
G1 X139.302 Y101.571 E-0.08037
G1 X139.690 Y101.604 E-0.08975
G1 X140.047 Y101.706 E-0.08586
G1 X140.379 Y101.871 E-0.08569
G1 X140.422 Y101.903 E-0.01224
;WIPE_END
G1 E-0.04000 F2100.000
G1 Z0.600 F10800.000
G1 X111.371 Y114.968
M73 Q1 S21
G1 Z0.200
G1 E0.80000 F2100.000
;TYPE:Perimeter
G1 F1200.000
G1 X111.499 Y115.409 E0.01439
G1 X111.540 Y115.850 E0.01389
G1 X111.500 Y116.289 E0.01383
G1 X111.379 Y116.713 E0.01383
G1 X111.182 Y117.108 E0.01383
G1 X110.917 Y117.460 E0.01383
G1 X110.601 Y117.748 E0.01340
G1 X110.397 Y117.888 E0.00775
G1 X110.032 Y118.070 E0.01279
G1 X109.592 Y118.199 E0.01439
G1 X109.150 Y118.240 E0.01389
G1 X108.711 Y118.199 E0.01383
G1 X108.287 Y118.078 E0.01383
G1 X107.892 Y117.882 E0.01383
G1 X107.540 Y117.616 E0.01383
M73 P1 R21
G1 X107.253 Y117.300 E0.01340
G1 X107.113 Y117.096 E0.00775
G1 X106.930 Y116.732 E0.01279
G1 X106.802 Y116.291 E0.01439
G1 X106.761 Y115.850 E0.01389
G1 X106.801 Y115.411 E0.01383
G1 X106.922 Y114.987 E0.01383
G1 X107.119 Y114.592 E0.01383
G1 X107.384 Y114.240 E0.01383
G1 X107.710 Y113.943 E0.01383
G1 X108.085 Y113.711 E0.01383
G1 X108.484 Y113.556 E0.01340
G1 X108.724 Y113.500 E0.00775
G1 X109.130 Y113.461 E0.01279
G1 X109.588 Y113.500 E0.01439
G1 X110.014 Y113.622 E0.01389
G1 X110.409 Y113.818 E0.01383
G1 X110.760 Y114.084 E0.01383
G1 X111.048 Y114.400 E0.01340
G1 X111.188 Y114.604 E0.00775
G1 X111.344 Y114.915 E0.01091
G1 X110.862 Y114.795 F10800.000
;TYPE:External perimeter
G1 F1200.000
G1 X111.018 Y115.107 E0.01091
G1 X111.127 Y115.480 E0.01219
G1 X111.162 Y115.850 E0.01166
G1 X111.127 Y116.220 E0.01164
G1 X111.026 Y116.576 E0.01164
G1 X110.860 Y116.909 E0.01164
G1 X110.637 Y117.205 E0.01164
G1 X110.366 Y117.452 E0.01148
G1 X110.205 Y117.562 E0.00612
G1 X109.894 Y117.718 E0.01091
G1 X109.521 Y117.827 E0.01219
G1 X109.150 Y117.861 E0.01166
G1 X108.781 Y117.827 E0.01164
G1 X108.424 Y117.725 E0.01164
G1 X108.092 Y117.560 E0.01164
G1 X107.796 Y117.336 E0.01164
G1 X107.549 Y117.066 E0.01148
G1 X107.439 Y116.905 E0.00612
G1 X107.283 Y116.593 E0.01091
G1 X107.174 Y116.220 E0.01219
G1 X107.139 Y115.850 E0.01166
G1 X107.174 Y115.480 E0.01164
G1 X107.275 Y115.124 E0.01164
G1 X107.441 Y114.791 E0.01164
G1 X107.664 Y114.495 E0.01164
G1 X107.938 Y114.245 E0.01164
G1 X108.254 Y114.050 E0.01164
G1 X108.596 Y113.917 E0.01148
G1 X108.786 Y113.873 E0.00612
G1 X109.132 Y113.840 E0.01091
G1 X109.519 Y113.873 E0.01219
G1 X109.877 Y113.975 E0.01166
G1 X110.209 Y114.140 E0.01164
G1 X110.505 Y114.364 E0.01164
G1 X110.752 Y114.634 E0.01148
G1 X110.828 Y114.746 E0.00424
G1 X111.210 Y114.790 F10800.000
;WIPE_START
G1 F8640.000
G1 X111.018 Y115.107 E-0.09412
G1 X111.127 Y115.480 E-0.08975
G1 X111.162 Y115.850 E-0.08586
G1 X111.127 Y116.220 E-0.08569
G1 X111.026 Y116.576 E-0.08569
G1 X110.860 Y116.909 E-0.08569
G1 X110.637 Y117.205 E-0.08569
G1 X110.366 Y117.452 E-0.08457
G1 X110.205 Y117.562 E-0.04506
G1 X110.136 Y117.597 E-0.01787
;WIPE_END
G1 E-0.04000 F2100.000
G1 Z0.600 F10800.000
G1 X117.063 Y111.063
G1 Z0.200
G1 E0.80000 F2100.000
;TYPE:Perimeter
G1 F1200.000
G1 X117.063 Y120.637 E0.30019
G1 X140.038 Y120.637 E0.72034
M73 P2 R21
M73 Q2 S21
G1 X140.038 Y111.063 E0.30019
G1 X130.438 Y111.063 E0.30100
G1 X130.438 Y110.037 E0.03216
G1 X133.287 Y110.037 E0.08936
G1 X133.650 Y109.999 E0.01143
G1 X133.866 Y109.941 E0.00700
G1 X134.074 Y109.861 E0.00701
G1 X134.421 Y109.660 E0.01256
G1 X134.719 Y109.392 E0.01256
G1 X134.981 Y109.031 E0.01400
G1 X135.138 Y108.679 E0.01208
G1 X135.200 Y108.449 E0.00748
G1 X135.238 Y108.086 E0.01143
G1 X135.238 Y98.914 E0.28760
G1 X135.198 Y98.536 E0.01191
G1 X135.074 Y98.155 E0.01255
G1 X134.966 Y97.942 E0.00749
G1 X134.740 Y97.631 E0.01208
G1 X134.410 Y97.333 E0.01392
G1 X134.106 Y97.154 E0.01107
G1 X133.671 Y97.004 E0.01442
G1 X133.287 Y96.963 E0.01210
G1 X130.940 Y96.963 E0.07362
G1 X130.940 Y89.363 E0.23829
G1 X120.361 Y89.363 E0.33167
G1 X120.361 Y90.866 E0.04712
G1 X119.426 Y90.871 E0.02934
G1 X119.191 Y90.908 E0.00745
G1 X118.825 Y91.027 E0.01208
G1 X118.612 Y91.135 E0.00749
G1 X118.288 Y91.371 E0.01256
G1 X118.020 Y91.668 E0.01256
G1 X117.891 Y91.867 E0.00741
G1 X117.744 Y92.188 E0.01107
G1 X117.640 Y92.636 E0.01443
G1 X117.640 Y93.620 E0.03085
G1 X117.462 Y93.191 E0.01457
G1 X117.373 Y92.825 E0.01180
G1 X117.327 Y92.298 E0.01660
G1 X117.347 Y91.939 E0.01126
G1 X117.411 Y91.577 E0.01152
G1 X117.582 Y91.068 E0.01686
G1 X117.837 Y90.603 E0.01660
G1 X118.168 Y90.190 E0.01660
G1 X118.573 Y89.834 E0.01692
G1 X119.035 Y89.556 E0.01688
G1 X119.371 Y89.417 E0.01141
G1 X119.655 Y89.337 E0.00925
G1 X131.658 Y89.337 E0.37637
G1 X132.673 Y89.586 E0.03275
G1 X133.747 Y89.897 E0.03506
G1 X134.814 Y90.254 E0.03527
G1 X135.865 Y90.655 E0.03527
G1 X136.886 Y91.094 E0.03484
G1 X137.151 Y91.235 E0.00943
G1 X137.513 Y91.505 E0.01418
G1 X137.814 Y91.831 E0.01389
G1 X138.066 Y92.232 E0.01484
G1 X142.892 Y101.750 E0.33462
G1 X143.069 Y102.150 E0.01371
G1 X143.245 Y102.745 E0.01946
G1 X143.314 Y103.185 E0.01395
G1 X144.860 Y118.156 E0.47191
G1 X144.852 Y118.466 E0.00973
G1 X144.806 Y118.764 E0.00943
G1 X144.656 Y119.224 E0.01517
G1 X144.518 Y119.491 E0.00943
G1 X144.342 Y119.746 E0.00973
G1 X144.134 Y119.977 E0.00973
G1 X143.905 Y120.173 E0.00943
G1 X143.492 Y120.424 E0.01517
G1 X143.222 Y120.534 E0.00914
G1 X142.751 Y120.642 E0.01517
G1 X142.428 Y120.663 E0.01013
G1 X114.537 Y120.660 E0.87452
G1 X108.595 Y119.824 E0.18814
G1 X107.960 Y119.681 E0.02039
G1 X107.366 Y119.444 E0.02007
G1 X106.811 Y119.110 E0.02031
G1 X106.653 Y118.990 E0.00621
G1 X106.185 Y118.553 E0.02007
G1 X105.793 Y118.048 E0.02007
G1 X105.576 Y117.671 E0.01363
G1 X105.402 Y117.281 E0.01338
G1 X105.224 Y116.675 E0.01982
G1 X105.143 Y116.040 E0.02007
G1 X105.163 Y115.400 E0.02007
G1 X105.287 Y114.765 E0.02031
G1 X105.513 Y114.157 E0.02031
G1 X105.828 Y113.600 E0.02007
G1 X106.223 Y113.107 E0.01982
G1 X106.531 Y112.811 E0.01338
G1 X106.869 Y112.550 E0.01338
G1 X107.420 Y112.230 E0.01999
G1 X108.073 Y111.945 E0.02235
G1 X108.954 Y111.521 E0.03066
G1 X109.811 Y111.047 E0.03070
G1 X110.238 Y110.786 E0.01568
G1 X111.051 Y110.241 E0.03070
G1 X111.835 Y109.648 E0.03083
G1 X112.581 Y109.015 E0.03070
G1 X112.948 Y108.675 E0.01568
G1 X113.635 Y107.983 E0.03057
G1 X113.972 Y107.614 E0.01568
G1 X114.597 Y106.866 E0.03057
G1 X114.902 Y106.469 E0.01568
G1 X115.461 Y105.671 E0.03057
G1 X115.731 Y105.250 E0.01568
G1 X116.223 Y104.403 E0.03070
G1 X116.668 Y103.527 E0.03082
G1 X117.048 Y102.660 E0.02967
G1 X117.242 Y102.165 E0.01669
G1 X117.639 Y100.958 E0.03983
G1 X117.640 Y107.962 E0.21961
G1 X117.726 Y108.369 E0.01305
G1 X117.896 Y108.749 E0.01305
G1 X118.140 Y109.086 E0.01305
G1 X118.450 Y109.364 E0.01305
G1 X118.796 Y109.565 E0.01256
G1 X119.020 Y109.650 E0.00749
G1 X119.404 Y109.732 E0.01232
G1 X119.488 Y109.734 E0.00263
G1 X119.494 Y111.063 E0.04166
G1 X117.123 Y111.063 E0.07431
;WIPE_START
G1 F8640.000
G1 X117.103 Y114.354 E-0.76000
;WIPE_END
G1 E-0.04000 F2100.000
G1 Z0.600 F10800.000
G1 X119.602 Y88.960
G1 Z0.200
G1 E0.80000 F2100.000
;TYPE:External perimeter
G1 F1200.000
G1 X131.704 Y88.960 E0.37944
G1 X132.770 Y89.222 E0.03442
G1 X133.859 Y89.537 E0.03555
G1 X134.941 Y89.899 E0.03576
G1 X136.006 Y90.306 E0.03576
G1 X137.049 Y90.754 E0.03556
G1 X137.354 Y90.915 E0.01082
G1 X137.767 Y91.224 E0.01618
G1 X138.115 Y91.601 E0.01607
G1 X138.394 Y92.046 E0.01648
G1 X143.233 Y101.589 E0.33547
G1 X143.422 Y102.015 E0.01464
G1 X143.615 Y102.672 E0.02147
G1 X143.688 Y103.136 E0.01472
G1 X145.238 Y118.141 E0.47298
M73 P3 R21
M73 Q3 S21
G1 X145.229 Y118.500 E0.01126
G1 X145.174 Y118.852 E0.01115
G1 X145.005 Y119.369 E0.01708
G1 X144.842 Y119.686 E0.01115
G1 X144.638 Y119.981 E0.01126
G1 X144.398 Y120.247 E0.01126
G1 X144.128 Y120.479 E0.01115
G1 X143.662 Y120.762 E0.01708
G1 X143.336 Y120.895 E0.01104
G1 X142.805 Y121.017 E0.01708
G1 X142.441 Y121.040 E0.01146
G1 X114.519 Y121.037 E0.87546
G1 X108.536 Y120.197 E0.18941
G1 X108.304 Y120.157 E0.00741
G1 X107.848 Y120.042 E0.01473
G1 X107.198 Y119.782 E0.02195
G1 X106.596 Y119.420 E0.02204
G1 X106.060 Y118.968 E0.02195
G1 X105.604 Y118.437 E0.02195
G1 X105.239 Y117.843 E0.02187
G1 X105.050 Y117.416 E0.01464
G1 X104.853 Y116.747 E0.02187
G1 X104.765 Y116.052 E0.02195
G1 X104.789 Y115.352 E0.02195
G1 X104.924 Y114.663 E0.02204
G1 X105.168 Y114.003 E0.02204
G1 X105.512 Y113.394 E0.02195
G1 X105.947 Y112.849 E0.02187
G1 X106.284 Y112.525 E0.01464
G1 X106.654 Y112.240 E0.01464
G1 X107.259 Y111.889 E0.02193
G1 X107.916 Y111.602 E0.02249
G1 X108.781 Y111.186 E0.03010
G1 X109.621 Y110.721 E0.03011
G1 X110.034 Y110.469 E0.01517
