; generated by PrusaSlicer 2.3.1+win64 on 2022-05-26 at 21:40:20 UTC

; 

; external perimeters extrusion width = 0.45mm
; perimeters extrusion width = 0.45mm
; infill extrusion width = 0.45mm
; solid infill extrusion width = 0.45mm
; top infill extrusion width = 0.40mm
; first layer extrusion width = 0.42mm

M73 P0 R40
M73 Q0 S40
M201 X1000 Y1000 Z200 E5000 ; sets maximum accelerations, mm/sec^2
M203 X200 Y200 Z12 E120 ; sets maximum feedrates, mm/sec
M204 P1250 R1250 T1250 ; sets acceleration (P, T) and retract acceleration (R), mm/sec^2
M205 X8.00 Y8.00 Z0.40 E4.50 ; sets the jerk limits, mm/sec
M205 S0 T0 ; sets the minimum extruding and travel feed rate, mm/sec
M107
;TYPE:Custom
M862.3 P "MK3S" ; printer model check
M862.1 P0.4 ; nozzle diameter check
M115 U3.11.0 ; tell printer latest fw version
G90 ; use absolute coordinates
M83 ; extruder relative mode
M104 S215 ; set extruder temp
M140 S60 ; set bed temp
M190 S60 ; wait for bed temp
M109 S215 ; wait for extruder temp
G28 W ; home all without mesh bed level
G80 ; mesh bed leveling
G1 Y-3.0 F1000.0 ; go outside print area
G92 E0.0
G1 X60.0 E9.0 F1000.0 ; intro line
G1 X100.0 E12.5 F1000.0 ; intro line
G92 E0.0
M221 S95

; Don't change E values below. Excessive value can damage the printer.

M907 E538 ; set extruder motor current
G21 ; set units to millimeters
G90 ; use absolute coordinates
M83 ; use relative distances for extrusion
M900 K0.05 ; Filament gcode LA 1.5
M900 K30 ; Filament gcode LA 1.0
;LAYER_CHANGE
;Z:0.2
;HEIGHT:0.2
;BEFORE_LAYER_CHANGE
G92 E0.0
;0.2


M73 P0 R39
G1 E-0.80000 F2100.000
G1 Z0.400 F10800.000
;AFTER_LAYER_CHANGE
;0.2
G1 X101.157 Y85.358
G1 Z0.200
G1 E0.80000 F2100.000
M204 S1000
;TYPE:Skirt
;WIDTH:0.42
G1 F1200.000
G1 X103.374 Y82.941 E0.10285
G1 X105.390 Y81.131 E0.08494
G1 X108.046 Y79.176 E0.10339
G1 X110.894 Y77.517 E0.10332
G1 X113.333 Y76.396 E0.08418
G1 X116.446 Y75.316 E0.10332
G1 X119.056 Y74.686 E0.08418
G1 X122.319 Y74.225 E0.10332
G1 X125.005 Y74.108 E0.08430
G1 X128.292 Y74.284 E0.10320
G1 X130.946 Y74.686 E0.08418
G1 X134.142 Y75.492 E0.10332
G1 X136.692 Y76.406 E0.08494
G1 X139.666 Y77.812 E0.10315
G1 X142.305 Y79.412 E0.09676
G1 X144.642 Y81.157 E0.09145
G1 X147.059 Y83.374 E0.10285
G1 X148.869 Y85.390 E0.08494
G1 X150.824 Y88.046 E0.10339
G1 X152.483 Y90.894 E0.10332
G1 X153.604 Y93.333 E0.08418
G1 X154.684 Y96.446 E0.10332
G1 X155.314 Y99.056 E0.08418
G1 X155.775 Y102.319 E0.10332
G1 X155.892 Y105.001 E0.08418
G1 X155.716 Y108.292 E0.10332
G1 X155.314 Y110.946 E0.08418
G1 X154.508 Y114.142 E0.10332
G1 X153.594 Y116.692 E0.08494
G1 X152.188 Y119.666 E0.10315
G1 X150.588 Y122.305 E0.09676
G1 X148.843 Y124.642 E0.09145
G1 X146.626 Y127.059 E0.10285
G1 X144.610 Y128.869 E0.08494
G1 X141.954 Y130.824 E0.10339
G1 X139.106 Y132.483 E0.10332
G1 X136.667 Y133.604 E0.08418
G1 X133.554 Y134.684 E0.10332
G1 X130.944 Y135.314 E0.08418
G1 X127.681 Y135.775 E0.10332
G1 X124.999 Y135.892 E0.08418
G1 X121.708 Y135.716 E0.10332
G1 X119.054 Y135.314 E0.08418
G1 X115.858 Y134.508 E0.10332
G1 X113.308 Y133.594 E0.08494
G1 X110.334 Y132.188 E0.10315
G1 X107.695 Y130.588 E0.09676
G1 X105.358 Y128.843 E0.09145
G1 X102.941 Y126.626 E0.10285
G1 X101.131 Y124.610 E0.08494
G1 X99.176 Y121.954 E0.10339
G1 X97.517 Y119.106 E0.10332
G1 X96.396 Y116.667 E0.08418
G1 X95.316 Y113.554 E0.10332
G1 X94.686 Y110.944 E0.08418
G1 X94.225 Y107.681 E0.10332
G1 X94.108 Y104.999 E0.08418
G1 X94.284 Y101.708 E0.10332
G1 X94.686 Y99.054 E0.08418
G1 X95.492 Y95.858 E0.10332
G1 X96.406 Y93.308 E0.08494
G1 X97.812 Y90.334 E0.10315
G1 X99.412 Y87.695 E0.09676
G1 X101.121 Y85.406 E0.08957
; printing object RFS_Button.stl id:0 copy 0
;WIPE_START
G1 F8640.000
G1 X103.342 Y82.976 E-0.76000
;WIPE_END
G1 E-0.04000 F2100.000
G1 Z0.600 F10800.000
G1 X104.304 Y87.969
G1 Z0.200
G1 E0.80000 F2100.000
;TYPE:Perimeter
G1 F1200.000
G1 X105.056 Y87.094 E0.03616
G1 X106.251 Y85.847 E0.05414
G1 X107.094 Y85.056 E0.03626
G1 X107.971 Y84.302 E0.03626
G1 X109.340 Y83.249 E0.05414
G1 X110.290 Y82.595 E0.03616
G1 X111.265 Y81.985 E0.03608
G1 X112.687 Y81.195 E0.05101
G1 X113.819 Y80.641 E0.03950
G1 X114.877 Y80.183 E0.03614
G1 X115.954 Y79.771 E0.03616
G1 X117.048 Y79.405 E0.03617
G1 X118.713 Y78.946 E0.05416
G1 X119.842 Y78.699 E0.03623
G1 X120.979 Y78.501 E0.03617
G1 X122.694 Y78.297 E0.05416
G1 X123.844 Y78.223 E0.03614
G1 X125.471 Y78.203 E0.05101
G1 X126.730 Y78.254 E0.03950
G1 X127.875 Y78.353 E0.03605
G1 X129.487 Y78.577 E0.05101
G1 X130.724 Y78.816 E0.03950
G1 X131.844 Y79.086 E0.03614
G1 X132.956 Y79.406 E0.03626
G1 X134.587 Y79.971 E0.05414
G1 X135.655 Y80.407 E0.03616
G1 X136.701 Y80.887 E0.03608
G1 X138.142 Y81.642 E0.05101
G1 X139.225 Y82.284 E0.03950
G1 X140.189 Y82.917 E0.03614
G1 X141.125 Y83.591 E0.03616
G1 X142.031 Y84.304 E0.03616
G1 X142.906 Y85.056 E0.03616
G1 X144.153 Y86.251 E0.05414
G1 X144.944 Y87.094 E0.03626
G1 X145.698 Y87.971 E0.03626
G1 X146.751 Y89.340 E0.05414
G1 X147.405 Y90.290 E0.03616
G1 X148.015 Y91.265 E0.03608
G1 X148.805 Y92.687 E0.05101
G1 X149.359 Y93.819 E0.03950
G1 X149.817 Y94.877 E0.03614
G1 X150.229 Y95.954 E0.03616
G1 X150.760 Y97.597 E0.05414
G1 X151.056 Y98.718 E0.03636
G1 X151.406 Y100.409 E0.05414
G1 X151.579 Y101.549 E0.03616
G1 X151.703 Y102.696 E0.03616
G1 X151.777 Y103.847 E0.03617
G1 X151.796 Y105.575 E0.05416
G1 X151.746 Y106.729 E0.03623
G1 X151.647 Y107.875 E0.03608
G1 X151.423 Y109.487 E0.05101
G1 X151.184 Y110.724 E0.03950
G1 X150.914 Y111.844 E0.03614
G1 X150.594 Y112.956 E0.03626
G1 X150.029 Y114.587 E0.05414
G1 X149.593 Y115.655 E0.03616
G1 X149.113 Y116.701 E0.03608
G1 X148.358 Y118.142 E0.05101
G1 X147.716 Y119.225 E0.03950
G1 X147.083 Y120.189 E0.03614
G1 X146.409 Y121.125 E0.03616
G1 X145.696 Y122.031 E0.03616
G1 X144.944 Y122.906 E0.03616
G1 X143.749 Y124.153 E0.05414
G1 X142.906 Y124.944 E0.03626
G1 X142.029 Y125.698 E0.03626
G1 X140.660 Y126.751 E0.05414
G1 X139.710 Y127.405 E0.03616
G1 X138.735 Y128.015 E0.03608
G1 X137.313 Y128.805 E0.05101
G1 X136.181 Y129.359 E0.03950
G1 X135.123 Y129.817 E0.03614
G1 X134.046 Y130.229 E0.03616
G1 X132.403 Y130.760 E0.05414
G1 X131.282 Y131.056 E0.03636
G1 X129.591 Y131.406 E0.05414
G1 X128.451 Y131.579 E0.03616
G1 X127.304 Y131.703 E0.03616
G1 X126.153 Y131.777 E0.03617
G1 X124.425 Y131.796 E0.05416
G1 X123.271 Y131.746 E0.03623
G1 X122.125 Y131.647 E0.03608
G1 X120.513 Y131.423 E0.05101
G1 X119.276 Y131.184 E0.03950
G1 X118.156 Y130.914 E0.03614
G1 X117.044 Y130.594 E0.03626
G1 X115.413 Y130.029 E0.05414
G1 X114.345 Y129.593 E0.03616
G1 X113.299 Y129.113 E0.03608
G1 X111.858 Y128.358 E0.05101
G1 X110.775 Y127.716 E0.03950
G1 X109.811 Y127.083 E0.03614
G1 X108.875 Y126.409 E0.03616
G1 X107.969 Y125.696 E0.03616
G1 X107.094 Y124.944 E0.03616
G1 X105.847 Y123.749 E0.05414
G1 X105.056 Y122.906 E0.03626
G1 X104.302 Y122.029 E0.03626
M73 P1 R39
G1 X103.249 Y120.660 E0.05414
M73 Q1 S40
G1 X102.595 Y119.710 E0.03616
G1 X101.985 Y118.735 E0.03608
G1 X101.195 Y117.313 E0.05101
G1 X100.641 Y116.181 E0.03950
G1 X100.183 Y115.123 E0.03614
G1 X99.771 Y114.046 E0.03616
G1 X99.240 Y112.403 E0.05414
G1 X98.944 Y111.282 E0.03636
G1 X98.594 Y109.591 E0.05414
G1 X98.421 Y108.451 E0.03616
G1 X98.297 Y107.304 E0.03616
G1 X98.223 Y106.153 E0.03617
G1 X98.204 Y104.425 E0.05416
G1 X98.254 Y103.271 E0.03623
G1 X98.353 Y102.125 E0.03608
G1 X98.577 Y100.513 E0.05101
G1 X98.816 Y99.276 E0.03950
G1 X99.086 Y98.156 E0.03614
G1 X99.406 Y97.044 E0.03626
G1 X99.971 Y95.413 E0.05414
G1 X100.407 Y94.345 E0.03616
G1 X100.887 Y93.299 E0.03608
G1 X101.642 Y91.858 E0.05101
G1 X102.284 Y90.775 E0.03950
G1 X102.917 Y89.811 E0.03614
G1 X103.591 Y88.875 E0.03616
G1 X104.267 Y88.016 E0.03428
G1 X103.971 Y87.783 F10800.000
;TYPE:External perimeter
G1 F1200.000
G1 X104.776 Y86.842 E0.03881
G1 X105.576 Y85.988 E0.03671
G1 X105.988 Y85.576 E0.01827
G1 X106.842 Y84.776 E0.03671
G1 X107.730 Y84.013 E0.03671
G1 X108.184 Y83.647 E0.01827
G1 X109.119 Y82.943 E0.03671
G1 X110.083 Y82.280 E0.03667
G1 X111.073 Y81.660 E0.03664
G1 X112.513 Y80.860 E0.05163
G1 X113.661 Y80.299 E0.04008
G1 X114.734 Y79.834 E0.03666
G1 X115.826 Y79.416 E0.03667
G1 X116.936 Y79.045 E0.03668
G1 X117.955 Y78.750 E0.03327
G1 X118.626 Y78.579 E0.02171
G1 X119.769 Y78.329 E0.03670
G1 X120.922 Y78.128 E0.03668
G1 X121.974 Y77.991 E0.03327
G1 X122.663 Y77.921 E0.02171
G1 X123.830 Y77.846 E0.03667
G1 X125.476 Y77.826 E0.05163
G1 X126.754 Y77.877 E0.04008
G1 X127.918 Y77.978 E0.03663
G1 X129.549 Y78.205 E0.05163
G1 X130.804 Y78.447 E0.04008
G1 X131.940 Y78.722 E0.03666
G1 X133.066 Y79.045 E0.03671
G1 X133.620 Y79.224 E0.01827
G1 X134.722 Y79.619 E0.03671
G1 X135.805 Y80.061 E0.03667
G1 X136.867 Y80.548 E0.03664
G1 X138.326 Y81.313 E0.05163
G1 X139.425 Y81.965 E0.04008
G1 X140.403 Y82.606 E0.03666
G1 X141.352 Y83.290 E0.03667
G1 X142.271 Y84.013 E0.03667
G1 X143.158 Y84.776 E0.03667
G1 X144.012 Y85.576 E0.03671
G1 X144.424 Y85.988 E0.01827
G1 X145.224 Y86.842 E0.03671
G1 X145.987 Y87.730 E0.03671
G1 X146.353 Y88.184 E0.01827
G1 X147.057 Y89.119 E0.03671
G1 X147.720 Y90.083 E0.03667
G1 X148.340 Y91.073 E0.03664
G1 X149.140 Y92.513 E0.05163
G1 X149.701 Y93.661 E0.04008
G1 X150.166 Y94.734 E0.03666
G1 X150.584 Y95.826 E0.03667
G1 X150.956 Y96.937 E0.03671
G1 X151.123 Y97.495 E0.01827
G1 X151.422 Y98.628 E0.03674
G1 X151.552 Y99.196 E0.01827
G1 X151.778 Y100.344 E0.03671
G1 X151.953 Y101.501 E0.03667
G1 X152.079 Y102.664 E0.03667
G1 X152.154 Y103.831 E0.03668
G1 X152.178 Y104.892 E0.03327
G1 X152.173 Y105.584 E0.02171
G1 X152.123 Y106.753 E0.03670
G1 X152.022 Y107.918 E0.03664
G1 X151.795 Y109.549 E0.05163
G1 X151.553 Y110.804 E0.04008
G1 X151.278 Y111.940 E0.03666
G1 X150.955 Y113.066 E0.03671
G1 X150.776 Y113.620 E0.01827
G1 X150.381 Y114.722 E0.03671
G1 X149.939 Y115.805 E0.03667
G1 X149.452 Y116.867 E0.03664
G1 X148.687 Y118.326 E0.05163
G1 X148.035 Y119.425 E0.04008
G1 X147.394 Y120.403 E0.03666
G1 X146.710 Y121.352 E0.03667
G1 X145.987 Y122.271 E0.03667
G1 X145.224 Y123.158 E0.03667
G1 X144.424 Y124.012 E0.03671
G1 X144.012 Y124.424 E0.01827
G1 X143.158 Y125.224 E0.03671
G1 X142.270 Y125.987 E0.03671
G1 X141.816 Y126.353 E0.01827
G1 X140.881 Y127.057 E0.03671
G1 X139.917 Y127.720 E0.03667
G1 X138.927 Y128.340 E0.03664
G1 X137.487 Y129.140 E0.05163
G1 X136.339 Y129.701 E0.04008
G1 X135.266 Y130.166 E0.03666
G1 X134.174 Y130.584 E0.03667
G1 X133.063 Y130.956 E0.03671
G1 X132.505 Y131.123 E0.01827
G1 X131.372 Y131.422 E0.03674
G1 X130.804 Y131.552 E0.01827
G1 X129.656 Y131.778 E0.03671
G1 X128.499 Y131.953 E0.03667
G1 X127.336 Y132.079 E0.03667
G1 X126.169 Y132.154 E0.03668
G1 X125.108 Y132.178 E0.03327
G1 X124.416 Y132.173 E0.02171
G1 X123.247 Y132.123 E0.03670
G1 X122.082 Y132.022 E0.03664
G1 X120.451 Y131.795 E0.05163
G1 X119.196 Y131.553 E0.04008
G1 X118.060 Y131.278 E0.03666
G1 X116.934 Y130.955 E0.03671
G1 X116.380 Y130.776 E0.01827
G1 X115.278 Y130.381 E0.03671
G1 X114.195 Y129.939 E0.03667
G1 X113.133 Y129.452 E0.03664
G1 X111.674 Y128.687 E0.05163
G1 X110.575 Y128.035 E0.04008
G1 X109.597 Y127.394 E0.03666
G1 X108.648 Y126.710 E0.03667
G1 X107.729 Y125.987 E0.03667
G1 X106.842 Y125.224 E0.03667
G1 X105.988 Y124.424 E0.03671
G1 X105.576 Y124.012 E0.01827
G1 X104.776 Y123.158 E0.03671
G1 X104.013 Y122.270 E0.03671
G1 X103.647 Y121.816 E0.01827
G1 X102.943 Y120.881 E0.03671
G1 X102.280 Y119.917 E0.03667
G1 X101.660 Y118.927 E0.03664
G1 X100.860 Y117.487 E0.05163
G1 X100.299 Y116.339 E0.04008
G1 X99.834 Y115.266 E0.03666
G1 X99.416 Y114.174 E0.03667
G1 X99.044 Y113.063 E0.03671
G1 X98.877 Y112.505 E0.01827
G1 X98.578 Y111.372 E0.03674
G1 X98.448 Y110.804 E0.01827
G1 X98.222 Y109.656 E0.03671
G1 X98.047 Y108.499 E0.03667
G1 X97.921 Y107.336 E0.03667
G1 X97.846 Y106.169 E0.03668
G1 X97.822 Y105.108 E0.03327
G1 X97.827 Y104.416 E0.02171
G1 X97.877 Y103.247 E0.03670
G1 X97.978 Y102.082 E0.03664
G1 X98.205 Y100.451 E0.05163
G1 X98.447 Y99.196 E0.04008
G1 X98.722 Y98.060 E0.03666
G1 X99.045 Y96.934 E0.03671
G1 X99.224 Y96.380 E0.01827
G1 X99.619 Y95.278 E0.03671
G1 X100.061 Y94.195 E0.03667
G1 X100.548 Y93.133 E0.03664
G1 X101.313 Y91.674 E0.05163
G1 X101.965 Y90.575 E0.04008
G1 X102.606 Y89.597 E0.03666
G1 X103.290 Y88.648 E0.03667
G1 X103.934 Y87.830 E0.03265
G1 X104.366 Y87.848 F10800.000
;WIPE_START
G1 F8640.000
G1 X104.776 Y86.842 E-0.29962
G1 X105.576 Y85.988 E-0.27032
G1 X105.988 Y85.576 E-0.13452
G1 X106.164 Y85.412 E-0.05554
;WIPE_END
G1 E-0.04000 F2100.000
G1 Z0.600 F10800.000
G1 X145.832 Y88.331
G1 Z0.200
G1 E0.80000 F2100.000
;TYPE:Solid infill
;WIDTH:0.421735
G1 F1200.000
G1 X143.531 Y86.030 E0.10248
G1 X142.717 Y85.267 E0.03517
G1 X141.851 Y84.523 E0.03595
G1 X140.955 Y83.817 E0.03595
G1 X140.338 Y83.373 E0.02395
G1 X146.635 Y89.670 E0.28054
G1 X147.168 Y90.445 E0.02961
G1 X147.661 Y91.231 E0.02922
G1 X138.776 Y82.347 E0.39576
G1 X138.004 Y81.889 E0.02827
G1 X137.539 Y81.645 E0.01654
G1 X148.358 Y92.465 E0.48197
G1 X148.555 Y92.818 E0.01273
G1 X148.917 Y93.559 E0.02597
G1 X136.433 Y81.075 E0.55611
G1 X135.451 Y80.629 E0.03396
G1 X149.363 Y94.541 E0.61973
G1 X149.732 Y95.446 E0.03076
G1 X134.546 Y80.260 E0.67646
M73 Q1 S39
G1 X133.706 Y79.956 E0.02813
G1 X150.041 Y96.290 E0.72763
G1 X150.296 Y97.081 E0.02618
G1 X132.917 Y79.702 E0.77416
G1 X132.153 Y79.474 E0.02512
G1 X150.536 Y97.856 E0.81887
G1 X150.728 Y98.584 E0.02372
G1 X131.418 Y79.274 E0.86018
G1 X130.712 Y79.104 E0.02288
G1 X150.882 Y99.274 E0.89850
G1 X151.022 Y99.950 E0.02174
G1 X130.045 Y78.973 E0.93445
M73 P2 R39
M73 Q2 S39
G1 X129.385 Y78.848 E0.02117
G1 X151.151 Y100.615 E0.96961
G1 X151.247 Y101.247 E0.02012
G1 X128.762 Y78.762 E1.00161
G1 X128.140 Y78.675 E0.01980
G1 X151.329 Y101.864 E1.03297
G1 X151.394 Y102.464 E0.01903
G1 X127.536 Y78.607 E1.06274
G1 X126.950 Y78.557 E0.01854
G1 X151.442 Y103.049 E1.09104
G1 X151.479 Y103.622 E0.01808
G1 X126.380 Y78.523 E1.11806
G1 X125.822 Y78.500 E0.01760
G1 X151.498 Y104.176 E1.14376
G1 X151.504 Y104.718 E0.01706
G1 X125.274 Y78.488 E1.16842
G1 X124.745 Y78.495 E0.01667
G1 X151.510 Y105.259 E1.19226
M73 P2 R38
G1 X151.504 Y105.789 E0.01668
G1 X124.216 Y78.501 E1.21556
G1 X123.695 Y78.516 E0.01642
G1 X151.482 Y106.303 E1.23779
G1 X151.455 Y106.812 E0.01607
G1 X123.192 Y78.548 E1.25903
G1 X122.690 Y78.582 E0.01584
G1 X151.413 Y107.305 E1.27948
M73 P3 R38
M73 Q3 S39
G1 X151.370 Y107.798 E0.01559
G1 X122.211 Y78.639 E1.29891
G1 X121.732 Y78.696 E0.01519
G1 X151.307 Y108.271 E1.31741
G1 X151.241 Y108.741 E0.01495
G1 X121.254 Y78.753 E1.33582
G1 X120.786 Y78.822 E0.01488
G1 X151.176 Y109.211 E1.35372
G1 X151.099 Y109.670 E0.01467
G1 X120.330 Y78.901 E1.37065
G1 X119.874 Y78.981 E0.01457
G1 X151.013 Y110.119 E1.38708
G1 X150.926 Y110.568 E0.01440
G1 X119.435 Y79.077 E1.40280
G1 X118.995 Y79.173 E0.01417
G1 X150.825 Y111.004 E1.41791
G1 X150.721 Y111.435 E0.01399
G1 X118.566 Y79.280 E1.43240
G1 X118.146 Y79.395 E0.01372
G1 X150.613 Y111.863 E1.44628
G1 X150.490 Y112.275 E0.01356
G1 X117.726 Y79.511 E1.45950
M73 P4 R38
M73 Q4 S39
G1 X117.306 Y79.627 E0.01372
G1 X150.366 Y112.688 E1.47271
G1 X150.243 Y113.100 E0.01356
G1 X116.897 Y79.753 E1.48545
M73 Q4 S38
G1 X116.495 Y79.888 E0.01333
G1 X150.115 Y113.508 E1.49764
G1 X149.974 Y113.902 E0.01320
G1 X116.094 Y80.022 E1.50923
G1 X115.705 Y80.169 E0.01309
G1 X149.833 Y114.297 E1.52025
G1 X149.684 Y114.684 E0.01306
G1 X115.317 Y80.317 E1.53089
G1 X114.932 Y80.467 E0.01303
G1 X149.529 Y115.064 E1.54115
G1 X149.374 Y115.445 E0.01294
G1 X114.558 Y80.629 E1.55088
G1 X114.184 Y80.791 E0.01283
G1 X149.209 Y115.815 E1.56018
M73 P5 R38
G1 X149.040 Y116.183 E0.01273
G1 X113.815 Y80.958 E1.56911
M73 Q5 S38
G1 X113.455 Y81.134 E0.01262
G1 X148.871 Y116.550 E1.57763
G1 X148.688 Y116.902 E0.01252
G1 X113.096 Y81.310 E1.58550
M73 P5 R37
G1 X112.739 Y81.489 E0.01257
G1 X148.504 Y117.254 E1.59317
G1 X148.320 Y117.605 E0.01250
G1 X112.395 Y81.680 E1.60030
G1 X112.051 Y81.872 E0.01241
G1 X148.136 Y117.957 E1.60744
G1 X147.938 Y118.295 E0.01234
G1 X111.706 Y82.063 E1.61399
G1 X111.364 Y82.256 E0.01238
G1 X147.739 Y118.632 E1.62036
G1 X147.539 Y118.968 E0.01232
G1 X111.034 Y82.463 E1.62615
