; generated by PrusaSlicer 2.3.1+win64 on 2022-05-26 at 21:41:03 UTC

; 

; external perimeters extrusion width = 0.45mm
; perimeters extrusion width = 0.45mm
; infill extrusion width = 0.45mm
; solid infill extrusion width = 0.45mm
; top infill extrusion width = 0.40mm
; first layer extrusion width = 0.42mm

M73 P0 R3
M73 Q0 S3
M201 X1000 Y1000 Z200 E5000 ; sets maximum accelerations, mm/sec^2
M203 X200 Y200 Z12 E120 ; sets maximum feedrates, mm/sec
M204 P1250 R1250 T1250 ; sets acceleration (P, T) and retract acceleration (R), mm/sec^2
M205 X8.00 Y8.00 Z0.40 E4.50 ; sets the jerk limits, mm/sec
M205 S0 T0 ; sets the minimum extruding and travel feed rate, mm/sec
M107
;TYPE:Custom
M862.3 P "MK3S" ; printer model check
M862.1 P0.4 ; nozzle diameter check
M115 U3.11.0 ; tell printer latest fw version
G90 ; use absolute coordinates
M83 ; extruder relative mode
M104 S215 ; set extruder temp
M140 S60 ; set bed temp
M190 S60 ; wait for bed temp
M109 S215 ; wait for extruder temp
G28 W ; home all without mesh bed level
G80 ; mesh bed leveling
G1 Y-3.0 F1000.0 ; go outside print area
G92 E0.0
G1 X60.0 E9.0 F1000.0 ; intro line
M73 P2 R3
M73 Q2 S3
G1 X100.0 E12.5 F1000.0 ; intro line
G92 E0.0
M221 S95

; Don't change E values below. Excessive value can damage the printer.

M907 E538 ; set extruder motor current
G21 ; set units to millimeters
G90 ; use absolute coordinates
M83 ; use relative distances for extrusion
M900 K0.05 ; Filament gcode LA 1.5
M900 K30 ; Filament gcode LA 1.0
;LAYER_CHANGE
;Z:0.2
;HEIGHT:0.2
;BEFORE_LAYER_CHANGE
G92 E0.0
;0.2


M73 P3 R3
M73 Q3 S3
G1 E-0.80000 F2100.000
G1 Z0.400 F10800.000
;AFTER_LAYER_CHANGE
;0.2
G1 X114.780 Y98.336
M73 P4 R3
M73 Q4 S3
G1 Z0.200
G1 E0.80000 F2100.000
M204 S1000
;TYPE:Skirt
;WIDTH:0.42
G1 F1200.000
G1 X114.940 Y97.777 E0.01822
G1 X115.214 Y97.265 E0.01822
G1 X115.590 Y96.821 E0.01822
G1 X116.050 Y96.466 E0.01822
G1 X116.524 Y96.234 E0.01656
G1 X117.034 Y96.097 E0.01656
G1 X118.498 Y96.053 E0.04591
G1 X132.710 Y96.466 E0.44579
M73 Q5 S3
G1 X133.679 Y96.725 E0.03145
G1 X134.491 Y97.314 E0.03145
G1 X135.023 Y98.121 E0.03031
G1 X135.245 Y99.058 E0.03018
G1 X135.249 Y110.804 E0.36831
M73 P5 R3
G1 X135.190 Y111.354 E0.01733
G1 X135.021 Y111.884 E0.01745
G1 X134.752 Y112.366 E0.01733
G1 X134.391 Y112.785 E0.01733
G1 X133.611 Y113.306 E0.02942
G1 X132.696 Y113.535 E0.02955
G1 X118.535 Y113.947 E0.44419
M73 Q6 S3
G1 X117.326 Y113.937 E0.03793
G1 X116.741 Y113.837 E0.01860
G1 X116.070 Y113.546 E0.02294
G1 X115.496 Y113.085 E0.02307
G1 X114.960 Y112.271 E0.03056
G1 X114.742 Y111.321 E0.03056
G1 X114.780 Y98.396 E0.40526
;WIPE_START
M73 P6 R3
G1 F8640.000
G1 X114.940 Y97.777 E-0.14756
G1 X115.214 Y97.265 E-0.13418
G1 X115.590 Y96.821 E-0.13418
G1 X116.050 Y96.466 E-0.13418
G1 X116.524 Y96.234 E-0.12194
G1 X116.892 Y96.135 E-0.08796
;WIPE_END
G1 E-0.04000 F2100.000
G1 Z0.600 F10800.000
G1 X117.133 Y96.463
G1 Z0.200
G1 E0.80000 F2100.000
G1 F1200.000
G1 X118.498 Y96.430 E0.04281
G1 X132.663 Y96.841 E0.44430
M73 P7 R3
M73 Q7 S3
G1 X133.495 Y97.056 E0.02696
G1 X134.197 Y97.553 E0.02696
G1 X134.673 Y98.260 E0.02673
G1 X134.869 Y99.090 E0.02673
G1 X134.872 Y110.795 E0.36703
G1 X134.684 Y111.715 E0.02942
G1 X134.154 Y112.490 E0.02942
G1 X133.465 Y112.958 E0.02614
G1 X132.660 Y113.159 E0.02602
G1 X118.539 Y113.569 E0.44294
M73 P8 R3
M73 Q8 S3
G1 X117.373 Y113.562 E0.03655
G1 X116.888 Y113.487 E0.01538
G1 X116.295 Y113.241 E0.02012
G1 X115.789 Y112.846 E0.02012
G1 X115.297 Y112.100 E0.02802
G1 X115.114 Y111.218 E0.02826
G1 X115.147 Y98.427 E0.40103
G1 X115.284 Y97.933 E0.01609
G1 X115.527 Y97.476 E0.01621
G1 X115.862 Y97.083 E0.01621
G1 X116.275 Y96.771 E0.01621
G1 X117.077 Y96.483 E0.02672
; printing object RFS_Pins.stl id:0 copy 0
;WIPE_START
G1 F8640.000
G1 X118.498 Y96.430 E-0.32843
G1 X120.366 Y96.484 E-0.43157
;WIPE_END
G1 E-0.04000 F2100.000
G1 Z0.600 F10800.000
G1 X118.239 Y109.407
M73 Q9 S3
G1 Z0.200
G1 E0.80000 F2100.000
;TYPE:Perimeter
G1 F1200.000
G1 X118.908 Y109.490 E0.02114
G1 X119.888 Y109.532 E0.03073
G1 X131.701 Y109.641 E0.37041
M73 P9 R3
G1 X131.701 Y109.859 E0.00683
G1 X118.257 Y109.982 E0.42152
G1 X118.244 Y109.467 E0.01617
;WIPE_START
G1 F8640.000
G1 X118.908 Y109.490 E-0.15353
G1 X119.888 Y109.532 E-0.22630
M73 Q10 S3
G1 X121.534 Y109.547 E-0.38018
;WIPE_END
G1 E-0.04000 F2100.000
G1 Z0.600 F10800.000
G1 X118.239 Y100.593
G1 Z0.200
M73 P10 R3
G1 E0.80000 F2100.000
G1 F1200.000
G1 X118.257 Y100.018 E0.01805
G1 X131.701 Y100.141 E0.42152
G1 X131.701 Y100.359 E0.00683
G1 X119.888 Y100.468 E0.37041
M73 P10 R2
M73 Q11 S3
G1 X118.908 Y100.510 E0.03073
G1 X118.299 Y100.586 E0.01926
G1 X118.345 Y100.960 F10800.000
;TYPE:External perimeter
G1 F1200.000
G1 X118.174 Y100.981 E0.00540
G1 X118.174 Y109.019 E0.25202
M73 P11 R2
M73 Q11 S2
G1 X118.940 Y109.114 E0.02419
G1 X119.897 Y109.155 E0.03006
G1 X132.078 Y109.268 E0.38192
G1 X132.078 Y110.232 E0.03026
G1 X118.076 Y110.361 E0.43905
M73 P12 R2
M73 Q12 S2
G1 X118.076 Y110.599 E0.00745
G1 X117.891 Y110.596 E0.00577
G1 X117.872 Y109.551 E0.03278
G1 X117.797 Y108.593 E0.03014
G1 X117.797 Y101.407 E0.22530
G1 X117.872 Y100.449 E0.03014
G1 X117.891 Y99.404 E0.03278
G1 X118.076 Y99.401 E0.00577
G1 X118.076 Y99.639 E0.00745
G1 X132.078 Y99.768 E0.43905
M73 Q13 S2
G1 X132.078 Y100.732 E0.03026
G1 X119.897 Y100.845 E0.38192
M73 P13 R2
G1 X118.940 Y100.886 E0.03006
G1 X118.405 Y100.953 E0.01691
G1 X118.243 Y100.821 F10800.000
G1 X118.441 Y100.293
;TYPE:Gap fill
;WIDTH:0.20195
G1 F1200.000
G1 X118.886 Y100.267 E0.00590
;WIDTH:0.101553
G1 X120.354 Y100.250 E0.00716
;WIPE_START
G1 F8640.000
G1 X118.886 Y100.267 E-0.33895
;WIPE_END
G1 E-0.46105 F2100.000
G1 Z0.600 F10800.000
G1 X120.354 Y109.750
G1 Z0.200
G1 E0.80000 F2100.000
;WIDTH:0.101553
G1 F1200.000
G1 X118.886 Y109.733 E0.00716
;WIDTH:0.201952
G1 X118.441 Y109.707 E0.00590
; stop printing object RFS_Pins.stl id:0 copy 0
M106 S84.15
;LAYER_CHANGE
;Z:0.4
;HEIGHT:0.2
;BEFORE_LAYER_CHANGE
G92 E0.0
;0.4


;WIPE_START
G1 F8640.000
G1 X118.886 Y109.733 E-0.10295
;WIPE_END
G1 E-0.69705 F2100.000
G1 Z0.600 F10800.000
;AFTER_LAYER_CHANGE
;0.4
M104 S210 ; set temperature
G1 X114.960 Y112.271
M73 Q14 S2
G1 Z0.400
G1 E0.80000 F2100.000
;TYPE:Skirt
;WIDTH:0.42
G1 F1384
G1 X114.742 Y111.321 E0.03056
G1 X114.780 Y98.336 E0.40714
M73 P14 R2
G1 X114.940 Y97.777 E0.01822
G1 X115.214 Y97.265 E0.01822
G1 X115.590 Y96.821 E0.01822
G1 X116.050 Y96.466 E0.01822
G1 X116.524 Y96.234 E0.01656
G1 X117.034 Y96.097 E0.01656
G1 X118.498 Y96.053 E0.04591
G1 X132.710 Y96.466 E0.44579
G1 X133.679 Y96.725 E0.03145
M73 Q15 S2
G1 X134.491 Y97.314 E0.03145
G1 X135.023 Y98.121 E0.03031
G1 X135.245 Y99.058 E0.03018
G1 X135.249 Y110.804 E0.36831
M73 P15 R2
G1 X135.190 Y111.354 E0.01733
G1 X135.021 Y111.884 E0.01745
G1 X134.752 Y112.366 E0.01733
G1 X134.391 Y112.785 E0.01733
G1 X133.611 Y113.306 E0.02942
G1 X132.696 Y113.535 E0.02955
G1 X118.535 Y113.947 E0.44419
G1 X117.326 Y113.937 E0.03793
G1 X116.741 Y113.837 E0.01860
G1 X116.070 Y113.546 E0.02294
G1 X115.496 Y113.085 E0.02307
G1 X114.993 Y112.321 E0.02868
G1 X115.307 Y112.114 F10800.000
G1 F1384
G1 X115.114 Y111.218 E0.02875
G1 X115.147 Y98.427 E0.40103
M73 P16 R2
M73 Q16 S2
G1 X115.284 Y97.933 E0.01609
G1 X115.527 Y97.476 E0.01621
G1 X115.862 Y97.083 E0.01621
G1 X116.275 Y96.771 E0.01621
G1 X117.133 Y96.463 E0.02860
G1 X118.498 Y96.430 E0.04281
G1 X132.663 Y96.841 E0.44430
G1 X133.495 Y97.056 E0.02696
G1 X134.197 Y97.553 E0.02696
G1 X134.673 Y98.260 E0.02673
G1 X134.869 Y99.090 E0.02673
G1 X134.872 Y110.795 E0.36703
M73 Q17 S2
G1 X134.684 Y111.715 E0.02942
M73 P17 R2
G1 X134.154 Y112.490 E0.02942
G1 X133.465 Y112.958 E0.02614
G1 X132.660 Y113.159 E0.02602
G1 X118.539 Y113.569 E0.44294
G1 X117.373 Y113.562 E0.03655
G1 X116.888 Y113.487 E0.01538
G1 X116.295 Y113.241 E0.02012
G1 X115.789 Y112.846 E0.02012
G1 X115.340 Y112.164 E0.02561
; printing object RFS_Pins.stl id:0 copy 0
;WIPE_START
G1 F8640.000
G1 X115.114 Y111.218 E-0.22468
G1 X115.120 Y108.899 E-0.53532
;WIPE_END
G1 E-0.04000 F2100.000
G1 Z0.800 F10800.000
G1 X118.121 Y110.270
G1 Z0.400
G1 E0.80000 F2100.000
M204 S800
;TYPE:Perimeter
;WIDTH:0.45
G1 F1384
G1 X118.121 Y109.230 E0.03523
M73 Q18 S2
G1 X131.859 Y109.388 E0.46505
M73 P18 R2
G1 X131.859 Y110.112 E0.02448
G1 X118.181 Y110.270 E0.46302
M204 S1000
;WIPE_START
G1 F8640.000
G1 X118.121 Y109.230 E-0.24055
G1 X120.370 Y109.256 E-0.51945
;WIPE_END
G1 E-0.04000 F2100.000
G1 Z0.800 F10800.000
G1 X118.121 Y100.770
M73 Q19 S2
G1 Z0.400
G1 E0.80000 F2100.000
M204 S800
G1 F1384
G1 X118.121 Y99.730 E0.03523
G1 X131.859 Y99.888 E0.46505
M73 P19 R2
G1 X131.859 Y100.612 E0.02448
G1 X118.181 Y100.770 E0.46302
M204 S1000
G1 X118.264 Y101.176 F10800.000
M204 S800
;TYPE:External perimeter
G1 F1384
G1 X118.264 Y108.824 E0.25889
M73 Q20 S2
G1 X132.266 Y108.986 E0.47399
M73 P20 R2
G1 X132.266 Y110.514 E0.05172
G1 X118.264 Y110.676 E0.47399
G1 X118.264 Y110.894 E0.00737
G1 X117.714 Y110.889 E0.01862
G1 X117.714 Y99.111 E0.39869
M73 P21 R2
M73 Q21 S2
G1 X118.264 Y99.106 E0.01862
G1 X118.264 Y99.324 E0.00737
G1 X132.266 Y99.486 E0.47399
G1 X132.266 Y101.014 E0.05172
G1 X118.324 Y101.175 E0.47196
M204 S1000
M73 Q22 S2
G1 X117.864 Y101.192 F10800.000
G1 X117.989 Y100.975
;TYPE:Gap fill
;WIDTH:0.186002
G1 F1384
G1 X117.989 Y109.025 E0.09576
;WIPE_START
M73 P22 R2
G1 F8640.000
G1 X117.989 Y105.733 E-0.76000
;WIPE_END
G1 E-0.04000 F2100.000
G1 Z0.800 F10800.000
G1 X118.286 Y110.146
G1 Z0.400
G1 E0.80000 F2100.000
;TYPE:Solid infill
;WIDTH:0.45641
G1 F1384
G1 X118.889 Y109.544 E0.02930
G1 X119.467 Y109.550 E0.01988
G1 X119.063 Y109.954 E0.01963
G1 X119.655 Y109.947 E0.02034
G1 X120.045 Y109.557 E0.01897
G1 X120.623 Y109.564 E0.01988
G1 X120.246 Y109.941 E0.01831
G1 X120.838 Y109.934 E0.02034
G1 X121.201 Y109.571 E0.01766
G1 X121.779 Y109.577 E0.01988
G1 X121.429 Y109.927 E0.01700
G1 X122.021 Y109.920 E0.02034
G1 X122.357 Y109.584 E0.01634
G1 X122.935 Y109.591 E0.01988
G1 X122.613 Y109.913 E0.01569
G1 X123.204 Y109.906 E0.02034
G1 X123.513 Y109.597 E0.01503
G1 X124.091 Y109.604 E0.01988
G1 X123.796 Y109.899 E0.01437
G1 X124.387 Y109.893 E0.02034
G1 X124.669 Y109.611 E0.01371
G1 X125.248 Y109.617 E0.01988
G1 X124.979 Y109.886 E0.01306
G1 X125.571 Y109.879 E0.02034
G1 X125.826 Y109.624 E0.01240
G1 X126.404 Y109.631 E0.01988
G1 X126.162 Y109.872 E0.01174
G1 X126.754 Y109.865 E0.02034
M73 Q23 S2
G1 X126.982 Y109.637 E0.01109
G1 X127.560 Y109.644 E0.01988
G1 X127.160 Y110.044 E0.01944
;WIPE_START
G1 F8640.000
G1 X127.560 Y109.644 E-0.13056
G1 X126.982 Y109.637 E-0.13349
G1 X126.754 Y109.865 E-0.07445
G1 X126.162 Y109.872 E-0.13661
G1 X126.404 Y109.631 E-0.07887
G1 X125.826 Y109.624 E-0.13349
G1 X125.604 Y109.846 E-0.07252
;WIPE_END
M73 P23 R2
G1 E-0.04000 F2100.000
G1 Z0.800 F10800.000
G1 X128.129 Y109.750
G1 Z0.400
G1 E0.80000 F2100.000
;TYPE:Gap fill
;WIDTH:0.404127
G1 F1384
G1 X131.656 Y109.750 E0.10593
;WIPE_START
G1 F8640.000
G1 X128.364 Y109.750 E-0.76000
;WIPE_END
G1 E-0.04000 F2100.000
G1 Z0.800 F10800.000
G1 X131.656 Y100.250
G1 Z0.400
G1 E0.80000 F2100.000
;WIDTH:0.404126
G1 F1384
G1 X128.129 Y100.250 E0.10593
;WIPE_START
G1 F8640.000
G1 X131.420 Y100.250 E-0.76000
;WIPE_END
G1 E-0.04000 F2100.000
G1 Z0.800 F10800.000
G1 X127.160 Y100.544
M73 Q24 S2
G1 Z0.400
G1 E0.80000 F2100.000
;TYPE:Solid infill
;WIDTH:0.45641
G1 F1384
G1 X127.560 Y100.144 E0.01944
G1 X126.982 Y100.137 E0.01988
G1 X126.754 Y100.365 E0.01109
G1 X126.162 Y100.372 E0.02034
G1 X126.404 Y100.131 E0.01174
G1 X125.826 Y100.124 E0.01988
M73 P24 R2
G1 X125.571 Y100.379 E0.01240
G1 X124.979 Y100.386 E0.02034
G1 X125.248 Y100.117 E0.01306
G1 X124.669 Y100.111 E0.01988
G1 X124.387 Y100.393 E0.01371
G1 X123.796 Y100.399 E0.02034
G1 X124.091 Y100.104 E0.01437
G1 X123.513 Y100.097 E0.01988
G1 X123.204 Y100.406 E0.01503
G1 X122.613 Y100.413 E0.02034
G1 X122.935 Y100.091 E0.01569
G1 X122.357 Y100.084 E0.01988
G1 X122.021 Y100.420 E0.01634
G1 X121.429 Y100.427 E0.02034
G1 X121.779 Y100.077 E0.01700
G1 X121.201 Y100.071 E0.01988
G1 X120.838 Y100.434 E0.01766
G1 X120.246 Y100.441 E0.02034
G1 X120.623 Y100.064 E0.01831
G1 X120.045 Y100.057 E0.01988
G1 X119.655 Y100.447 E0.01897
G1 X119.063 Y100.454 E0.02034
G1 X119.467 Y100.050 E0.01963
G1 X118.889 Y100.044 E0.01988
G1 X118.286 Y100.646 E0.02930
; stop printing object RFS_Pins.stl id:0 copy 0
M106 S170.85
;LAYER_CHANGE
;Z:0.6
;HEIGHT:0.2
;BEFORE_LAYER_CHANGE
G92 E0.0
;0.6


;WIPE_START
G1 F8640.000
G1 X118.889 Y100.044 E-0.19676
G1 X119.467 Y100.050 E-0.13349
G1 X119.063 Y100.454 E-0.13182
G1 X119.655 Y100.447 E-0.13661
G1 X120.045 Y100.057 E-0.12741
G1 X120.192 Y100.059 E-0.03390
;WIPE_END
G1 E-0.04000 F2100.000
G1 Z0.800 F10800.000
;AFTER_LAYER_CHANGE
;0.6
G1 X133.679 Y96.725
G1 Z0.600
G1 E0.80000 F2100.000
;TYPE:Skirt
;WIDTH:0.42
M73 Q25 S2
G1 F1443
G1 X134.491 Y97.314 E0.03145
G1 X135.023 Y98.121 E0.03031
G1 X135.245 Y99.058 E0.03018
G1 X135.249 Y110.804 E0.36831
M73 P25 R2
G1 X135.190 Y111.354 E0.01733
G1 X135.021 Y111.884 E0.01745
G1 X134.752 Y112.366 E0.01733
G1 X134.391 Y112.785 E0.01733
G1 X133.611 Y113.306 E0.02942
G1 X132.696 Y113.535 E0.02955
G1 X118.535 Y113.947 E0.44419
G1 X117.326 Y113.937 E0.03793
G1 X116.741 Y113.837 E0.01860
G1 X116.070 Y113.546 E0.02294
G1 X115.496 Y113.085 E0.02307
G1 X114.960 Y112.271 E0.03056
G1 X114.742 Y111.321 E0.03056
G1 X114.780 Y98.336 E0.40714
M73 P26 R2
M73 Q26 S2
G1 X114.940 Y97.777 E0.01822
G1 X115.214 Y97.265 E0.01822
G1 X115.590 Y96.821 E0.01822
G1 X116.050 Y96.466 E0.01822
G1 X116.524 Y96.234 E0.01656
G1 X117.034 Y96.097 E0.01656
G1 X118.498 Y96.053 E0.04591
G1 X132.710 Y96.466 E0.44579
G1 X133.621 Y96.710 E0.02957
G1 X133.495 Y97.056 F10800.000
G1 F1443
G1 X134.197 Y97.553 E0.02696
G1 X134.673 Y98.260 E0.02673
G1 X134.869 Y99.090 E0.02673
G1 X134.872 Y110.795 E0.36703
M73 Q27 S2
G1 X134.684 Y111.715 E0.02942
G1 X134.154 Y112.490 E0.02942
M73 P27 R2
G1 X133.465 Y112.958 E0.02614
G1 X132.660 Y113.159 E0.02602
G1 X118.539 Y113.569 E0.44294
G1 X117.373 Y113.562 E0.03655
G1 X116.888 Y113.487 E0.01538
G1 X116.295 Y113.241 E0.02012
G1 X115.789 Y112.846 E0.02012
G1 X115.297 Y112.100 E0.02802
G1 X115.114 Y111.218 E0.02826
G1 X115.147 Y98.427 E0.40103
M73 Q28 S2
G1 X115.284 Y97.933 E0.01609
G1 X115.527 Y97.476 E0.01621
G1 X115.862 Y97.083 E0.01621
G1 X116.275 Y96.771 E0.01621
G1 X117.133 Y96.463 E0.02860
G1 X118.498 Y96.430 E0.04281
G1 X132.663 Y96.841 E0.44430
M73 P28 R2
G1 X133.437 Y97.041 E0.02508
; printing object RFS_Pins.stl id:0 copy 0
;WIPE_START
G1 F8640.000
G1 X134.197 Y97.553 E-0.21156
G1 X134.673 Y98.260 E-0.19682
G1 X134.869 Y99.090 E-0.19682
G1 X134.869 Y99.760 E-0.15481
;WIPE_END
G1 E-0.04000 F2100.000
G1 Z1.000 F10800.000
G1 X131.863 Y109.336
G1 Z0.600
G1 E0.80000 F2100.000
M204 S800
;TYPE:Perimeter
;WIDTH:0.45
G1 F1443
G1 X131.863 Y110.164 E0.02806
G1 X118.125 Y110.357 E0.46507
M73 Q29 S2
G1 X118.125 Y109.143 E0.04109
M73 P29 R2
G1 X131.803 Y109.335 E0.46304
M204 S1000
;WIPE_START
G1 F8640.000
G1 X131.863 Y110.164 E-0.19210
G1 X129.404 Y110.199 E-0.56790
;WIPE_END
G1 E-0.04000 F2100.000
G1 Z1.000 F10800.000
G1 X131.681 Y100.667
G1 Z0.600
G1 E0.80000 F2100.000
M204 S800
G1 F1443
G1 X118.125 Y100.857 E0.45892
M73 P30 R2
M73 Q30 S2
G1 X118.125 Y99.643 E0.04109
G1 X131.863 Y99.836 E0.46507
G1 X131.863 Y100.664 E0.02806
G1 X131.741 Y100.666 E0.00411
M204 S1000
;WIPE_START
G1 F8640.000
G1 X128.450 Y100.712 E-0.76000
;WIPE_END
G1 E-0.04000 F2100.000
G1 Z1.000 F10800.000
G1 X118.268 Y99.238
G1 Z0.600
G1 E0.80000 F2100.000
M204 S800
;TYPE:External perimeter
G1 F1443
G1 X132.270 Y99.434 E0.47401
M73 P31 R2
M73 Q31 S2
G1 X132.270 Y101.066 E0.05523
G1 X118.268 Y101.262 E0.47401
G1 X118.268 Y108.738 E0.25304
G1 X132.270 Y108.934 E0.47401
M73 P32 R2
M73 Q32 S2
G1 X132.270 Y110.566 E0.05523
G1 X118.268 Y110.762 E0.47401
G1 X118.268 Y110.967 E0.00692
G1 X117.717 Y110.964 E0.01862
G1 X117.717 Y99.036 E0.40373
G1 X118.268 Y99.033 E0.01862
G1 X118.268 Y99.178 E0.00489
M204 S1000
G1 X118.422 Y99.607 F10800.000
;WIPE_START
M73 Q33 S2
G1 F8640.000
G1 X121.559 Y99.238 E-0.76000
;WIPE_END
G1 E-0.04000 F2100.000
