; generated by PrusaSlicer 2.3.1+win64 on 2022-05-26 at 21:40:26 UTC

; 

; external perimeters extrusion width = 0.45mm
; perimeters extrusion width = 0.45mm
; infill extrusion width = 0.45mm
; solid infill extrusion width = 0.45mm
; top infill extrusion width = 0.40mm
; first layer extrusion width = 0.42mm

M73 P0 R22
M73 Q0 S22
M201 X1000 Y1000 Z200 E5000 ; sets maximum accelerations, mm/sec^2
M203 X200 Y200 Z12 E120 ; sets maximum feedrates, mm/sec
M204 P1250 R1250 T1250 ; sets acceleration (P, T) and retract acceleration (R), mm/sec^2
M205 X8.00 Y8.00 Z0.40 E4.50 ; sets the jerk limits, mm/sec
M205 S0 T0 ; sets the minimum extruding and travel feed rate, mm/sec
M107
;TYPE:Custom
M862.3 P "MK3S" ; printer model check
M862.1 P0.4 ; nozzle diameter check
M115 U3.11.0 ; tell printer latest fw version
G90 ; use absolute coordinates
M83 ; extruder relative mode
M104 S215 ; set extruder temp
M140 S60 ; set bed temp
M190 S60 ; wait for bed temp
M109 S215 ; wait for extruder temp
G28 W ; home all without mesh bed level
G80 ; mesh bed leveling
G1 Y-3.0 F1000.0 ; go outside print area
G92 E0.0
G1 X60.0 E9.0 F1000.0 ; intro line
G1 X100.0 E12.5 F1000.0 ; intro line
G92 E0.0
M221 S95

; Don't change E values below. Excessive value can damage the printer.

M907 E538 ; set extruder motor current
G21 ; set units to millimeters
G90 ; use absolute coordinates
M83 ; use relative distances for extrusion
M900 K0.05 ; Filament gcode LA 1.5
M900 K30 ; Filament gcode LA 1.0
;LAYER_CHANGE
;Z:0.2
;HEIGHT:0.2
;BEFORE_LAYER_CHANGE
G92 E0.0
;0.2


G1 E-0.80000 F2100.000
G1 Z0.400 F10800.000
;AFTER_LAYER_CHANGE
;0.2
G1 X102.354 Y86.458
G1 Z0.200
G1 E0.80000 F2100.000
M204 S1000
;TYPE:Skirt
;WIDTH:0.42
G1 F1200.000
G1 X104.145 Y84.453 E0.08430
G1 X106.560 Y82.246 E0.10260
G1 X108.718 Y80.642 E0.08428
G1 X111.014 Y79.243 E0.08430
G1 X113.969 Y77.830 E0.10272
G1 X116.496 Y76.924 E0.08416
G1 X119.099 Y76.252 E0.08430
G1 X122.334 Y75.758 E0.10260
G1 X125.034 Y75.624 E0.08476
G1 X127.677 Y75.733 E0.08297
G1 X130.316 Y76.083 E0.08344
G1 X132.912 Y76.670 E0.08345
G1 X135.444 Y77.490 E0.08344
G1 X137.891 Y78.535 E0.08344
G1 X140.234 Y79.798 E0.08344
G1 X142.453 Y81.267 E0.08344
G1 X144.527 Y82.929 E0.08333
G1 X146.447 Y84.777 E0.08356
G1 X148.190 Y86.788 E0.08345
G1 X149.744 Y88.949 E0.08344
G1 X151.096 Y91.241 E0.08345
G1 X152.234 Y93.647 E0.08344
G1 X153.152 Y96.149 E0.08356
G1 X153.840 Y98.728 E0.08368
G1 X154.237 Y101.232 E0.07952
G1 X154.088 Y109.941 E0.27310
G1 X153.791 Y111.491 E0.04947
G1 X153.285 Y113.418 E0.06247
G1 X152.167 Y116.514 E0.10321
G1 X150.988 Y118.960 E0.08513
G1 X149.260 Y121.770 E0.10343
G1 X147.220 Y124.378 E0.10381
G1 X145.345 Y126.326 E0.08477
G1 X142.827 Y128.457 E0.10343
G1 X140.085 Y130.292 E0.10345
G1 X137.686 Y131.564 E0.08513
G1 X134.629 Y132.803 E0.10343
G1 X131.451 Y133.692 E0.10345
G1 X128.776 Y134.152 E0.08513
G1 X125.473 Y134.376 E0.10379
M73 Q1 S22
G1 X122.188 Y134.229 E0.10309
G1 X119.529 Y133.837 E0.08428
M73 P1 R22
G1 X116.916 Y133.203 E0.08429
G1 X113.831 Y132.113 E0.10260
G1 X111.400 Y130.966 E0.08428
G1 X109.084 Y129.601 E0.08430
G1 X106.447 Y127.663 E0.10260
G1 X104.454 Y125.860 E0.08428
G1 X102.634 Y123.881 E0.08430
G1 X100.673 Y121.261 E0.10260
G1 X99.290 Y118.957 E0.08428
G1 X98.122 Y116.535 E0.08430
G1 X97.007 Y113.458 E0.10260
G1 X96.351 Y110.852 E0.08428
G1 X95.937 Y108.195 E0.08430
G1 X95.763 Y104.927 E0.10260
G1 X95.893 Y102.243 E0.08428
G1 X96.267 Y99.580 E0.08430
G1 X97.049 Y96.403 E0.10260
G1 X97.953 Y93.871 E0.08428
G1 X99.084 Y91.432 E0.08430
G1 X100.755 Y88.619 E0.10260
G1 X102.318 Y86.507 E0.08240
; printing object RFS_Flexure.stl id:0 copy 0
;WIPE_START
G1 F8640.000
G1 X104.145 Y84.453 E-0.63458
G1 X104.546 Y84.087 E-0.12542
;WIPE_END
G1 E-0.04000 F2100.000
G1 Z0.600 F10800.000
G1 X121.832 Y102.163
G1 Z0.200
G1 E0.80000 F2100.000
;TYPE:Perimeter
G1 F1200.000
G1 X122.040 Y101.937 E0.00963
G1 X122.430 Y101.587 E0.01646
G1 X122.663 Y101.414 E0.00907
G1 X123.111 Y101.143 E0.01642
G1 X123.622 Y100.915 E0.01756
G1 X124.132 Y100.759 E0.01671
G1 X124.666 Y100.667 E0.01698
G1 X125.180 Y100.643 E0.01613
G1 X125.487 Y100.656 E0.00963
G1 X126.006 Y100.729 E0.01646
G1 X126.288 Y100.796 E0.00907
G1 X126.784 Y100.964 E0.01642
G1 X127.048 Y101.082 E0.00907
G1 X127.512 Y101.343 E0.01671
G1 X127.941 Y101.661 E0.01671
G1 X128.156 Y101.854 E0.00906
G1 X128.499 Y102.224 E0.01584
G1 X128.838 Y102.694 E0.01816
G1 X129.093 Y103.162 E0.01671
G1 X129.287 Y103.658 E0.01671
G1 X129.367 Y103.936 E0.00907
G1 X129.466 Y104.460 E0.01671
G1 X129.499 Y104.992 E0.01671
G1 X129.490 Y105.281 E0.00907
G1 X129.424 Y105.810 E0.01671
G1 X129.292 Y106.326 E0.01671
G1 X129.088 Y106.848 E0.01756
G1 X128.838 Y107.308 E0.01642
G1 X128.677 Y107.548 E0.00907
G1 X128.340 Y107.961 E0.01671
G1 X127.955 Y108.329 E0.01671
G1 X127.735 Y108.503 E0.00879
G1 X127.504 Y108.662 E0.00879
G1 X127.040 Y108.924 E0.01671
G1 X126.539 Y109.130 E0.01700
G1 X126.024 Y109.269 E0.01671
G1 X125.739 Y109.318 E0.00907
G1 X125.208 Y109.359 E0.01671
G1 X124.676 Y109.335 E0.01671
G1 X124.124 Y109.239 E0.01756
G1 X123.622 Y109.087 E0.01642
G1 X123.355 Y108.977 E0.00907
G1 X122.883 Y108.730 E0.01671
G1 X122.438 Y108.421 E0.01698
G1 X122.054 Y108.078 E0.01613
G1 X121.845 Y107.854 E0.00963
G1 X121.520 Y107.430 E0.01674
G1 X121.260 Y106.986 E0.01613
G1 X121.031 Y106.455 E0.01816
G1 X120.886 Y105.951 E0.01642
G1 X120.832 Y105.667 E0.00907
G1 X120.783 Y105.137 E0.01670
G1 X120.798 Y104.623 E0.01613
G1 X120.835 Y104.318 E0.00963
G1 X120.948 Y103.805 E0.01646
G1 X121.037 Y103.530 E0.00907
G1 X121.247 Y103.040 E0.01671
G1 X121.520 Y102.572 E0.01698
G1 X121.796 Y102.211 E0.01424
G1 X121.834 Y102.782 F10800.000
;TYPE:External perimeter
G1 F1200.000
G1 X122.121 Y102.406 E0.01486
G1 X122.305 Y102.205 E0.00852
G1 X122.669 Y101.879 E0.01533
G1 X122.873 Y101.728 E0.00797
G1 X123.291 Y101.475 E0.01532
G1 X123.517 Y101.365 E0.00787
G1 X123.749 Y101.270 E0.00787
G1 X124.220 Y101.127 E0.01542
G1 X124.707 Y101.043 E0.01552
G1 X125.181 Y101.020 E0.01486
G1 X125.452 Y101.032 E0.00852
G1 X125.936 Y101.100 E0.01533
G1 X126.184 Y101.159 E0.00797
G1 X126.646 Y101.315 E0.01532
G1 X126.878 Y101.419 E0.00797
G1 X127.307 Y101.660 E0.01542
G1 X127.702 Y101.953 E0.01542
G1 X127.891 Y102.123 E0.00797
G1 X128.211 Y102.468 E0.01476
G1 X128.375 Y102.680 E0.00841
G1 X128.515 Y102.889 E0.00788
G1 X128.750 Y103.321 E0.01542
G1 X128.929 Y103.779 E0.01542
G1 X129.000 Y104.023 E0.00797
G1 X129.091 Y104.507 E0.01542
G1 X129.121 Y104.997 E0.01542
G1 X129.113 Y105.251 E0.00797
G1 X129.052 Y105.739 E0.01542
G1 X128.931 Y106.216 E0.01542
G1 X128.847 Y106.452 E0.00787
G1 X128.748 Y106.683 E0.00787
G1 X128.515 Y107.112 E0.01532
G1 X128.374 Y107.323 E0.00797
G1 X128.063 Y107.704 E0.01542
G1 X127.707 Y108.044 E0.01542
G1 X127.510 Y108.200 E0.00787
G1 X127.304 Y108.343 E0.00787
G1 X126.876 Y108.584 E0.01542
G1 X126.417 Y108.772 E0.01552
G1 X125.943 Y108.900 E0.01542
G1 X125.692 Y108.944 E0.00797
G1 X125.202 Y108.982 E0.01542
G1 X124.711 Y108.959 E0.01542
G1 X124.462 Y108.924 E0.00787
G1 X124.216 Y108.873 E0.00787
G1 X123.749 Y108.731 E0.01532
G1 X123.514 Y108.635 E0.00797
G1 X123.078 Y108.407 E0.01542
G1 X122.672 Y108.125 E0.01552
G1 X122.318 Y107.809 E0.01486
G1 X122.133 Y107.610 E0.00852
G1 X121.834 Y107.219 E0.01543
G1 X121.594 Y106.810 E0.01486
G1 X121.480 Y106.567 E0.00841
G1 X121.388 Y106.333 E0.00788
G1 X121.253 Y105.864 E0.01532
G1 X121.206 Y105.614 E0.00797
G1 X121.160 Y105.125 E0.01542
G1 X121.175 Y104.651 E0.01486
G1 X121.207 Y104.381 E0.00852
G1 X121.313 Y103.904 E0.01533
G1 X121.391 Y103.662 E0.00797
G1 X121.584 Y103.210 E0.01542
G1 X121.804 Y102.834 E0.01364
G1 X121.657 Y102.423 F10800.000
;WIPE_START
G1 F8640.000
G1 X122.121 Y102.406 E-0.12321
G1 X122.305 Y102.205 E-0.06271
G1 X122.669 Y101.879 E-0.11290
G1 X122.873 Y101.728 E-0.05869
G1 X123.291 Y101.475 E-0.11280
G1 X123.517 Y101.365 E-0.05793
G1 X123.749 Y101.270 E-0.05793
G1 X124.220 Y101.127 E-0.11355
G1 X124.477 Y101.083 E-0.06027
;WIPE_END
G1 E-0.04000 F2100.000
G1 Z0.600 F10800.000
G1 X135.222 Y103.295
G1 Z0.200
G1 E0.80000 F2100.000
;TYPE:Perimeter
G1 F1200.000
G1 X140.074 Y97.835 E0.22901
G1 X140.339 Y97.607 E0.01095
G1 X140.555 Y97.484 E0.00779
G1 X140.948 Y97.357 E0.01297
G1 X141.339 Y97.335 E0.01228
G1 X141.744 Y97.416 E0.01292
G1 X142.115 Y97.599 E0.01297
G1 X142.426 Y97.871 E0.01297
G1 X142.657 Y98.214 E0.01297
G1 X142.791 Y98.606 E0.01297
G1 X142.820 Y99.018 E0.01295
G1 X142.751 Y99.380 E0.01155
G1 X135.805 Y120.334 E0.69217
G1 X133.792 Y122.991 E0.10452
G1 X133.514 Y123.493 E0.01799
G1 X133.375 Y123.856 E0.01217
G1 X133.276 Y124.239 E0.01241
G1 X133.214 Y124.809 E0.01799
G1 X133.227 Y125.198 E0.01221
G1 X133.355 Y126.099 E0.02852
G1 X133.358 Y126.624 E0.01648
G1 X133.294 Y127.135 E0.01613
G1 X133.231 Y127.409 E0.00883
G1 X133.068 Y127.897 E0.01613
G1 X132.842 Y128.359 E0.01613
G1 X132.541 Y128.812 E0.01704
G1 X132.209 Y129.192 E0.01583
G1 X132.004 Y129.385 E0.00883
G1 X131.604 Y129.693 E0.01583
G1 X131.365 Y129.842 E0.00883
G1 X130.913 Y130.065 E0.01583
G1 X130.649 Y130.164 E0.00882
G1 X130.166 Y130.294 E0.01567
G1 X128.957 Y130.504 E0.03847
G1 X127.755 Y130.655 E0.03801
G1 X126.546 Y130.750 E0.03801
G1 X125.334 Y130.787 E0.03801
G1 X124.125 Y130.768 E0.03791
G1 X123.481 Y130.734 E0.02022
G1 X122.309 Y130.632 E0.03690
G1 X121.107 Y130.471 E0.03801
G1 X119.915 Y130.253 E0.03801
G1 X118.735 Y129.980 E0.03798
G1 X117.858 Y129.736 E0.02854
G1 X116.988 Y129.466 E0.02854
G1 X115.849 Y129.056 E0.03798
G1 X114.728 Y128.593 E0.03801
G1 X113.631 Y128.077 E0.03801
G1 X112.562 Y127.512 E0.03790
G1 X112.031 Y127.207 E0.01922
G1 X111.004 Y126.568 E0.03790
G1 X110.006 Y125.880 E0.03801
G1 X109.042 Y125.146 E0.03801
G1 X108.113 Y124.367 E0.03801
G1 X107.224 Y123.548 E0.03790
G1 X106.788 Y123.116 E0.01922
G1 X105.959 Y122.236 E0.03790
G1 X105.170 Y121.316 E0.03801
G1 X104.425 Y120.359 E0.03801
G1 X103.728 Y119.372 E0.03790
G1 X103.393 Y118.859 E0.01922
G1 X102.767 Y117.824 E0.03790
G1 X102.189 Y116.758 E0.03801
G1 X101.662 Y115.667 E0.03801
G1 X101.187 Y114.552 E0.03801
G1 X100.764 Y113.415 E0.03801
G1 X100.397 Y112.264 E0.03790
G1 X100.223 Y111.646 E0.02013
G1 X100.164 Y111.262 E0.01218
G1 X100.188 Y110.842 E0.01319
G1 X100.301 Y110.436 E0.01319
G1 X100.497 Y110.064 E0.01319
G1 X100.767 Y109.742 E0.01319
G1 X101.100 Y109.484 E0.01319
G1 X101.479 Y109.302 E0.01319
G1 X101.873 Y109.208 E0.01270
G1 X102.102 Y109.192 E0.00719
G1 X102.346 Y109.203 E0.00765
G1 X102.725 Y109.278 E0.01211
G1 X103.197 Y109.484 E0.01616
G1 X117.855 Y125.960 E0.69144
G1 X118.240 Y126.355 E0.01729
G1 X118.651 Y126.708 E0.01700
G1 X119.311 Y127.157 E0.02501
G1 X120.024 Y127.515 E0.02501
G1 X120.784 Y127.777 E0.02521
G1 X121.572 Y127.935 E0.02521
G1 X122.381 Y127.987 E0.02541
G1 X123.190 Y127.929 E0.02541
G1 X123.970 Y127.766 E0.02500
G1 X124.486 Y127.598 E0.01702
G1 X125.211 Y127.266 E0.02500
G1 X125.672 Y126.991 E0.01681
G1 X126.105 Y126.676 E0.01681
G1 X126.514 Y126.319 E0.01702
G1 X127.052 Y125.730 E0.02500
G1 X127.368 Y125.297 E0.01681
M73 Q2 S22
G1 X127.645 Y124.838 E0.01681
G1 X127.885 Y124.341 E0.01729
G1 X134.157 Y109.798 E0.49659
M73 P2 R22
G1 X134.480 Y109.130 E0.02326
G1 X134.741 Y108.481 E0.02193
G1 X135.047 Y107.483 E0.03274
G1 X135.194 Y106.793 E0.02209
G1 X135.293 Y106.101 E0.02194
G1 X135.345 Y105.403 E0.02194
G1 X135.348 Y104.704 E0.02194
G1 X135.304 Y104.000 E0.02209
G1 X135.229 Y103.354 E0.02039
G1 X135.616 Y103.419 F10800.000
;TYPE:External perimeter
G1 F1200.000
G1 X140.340 Y98.104 E0.22294
G1 X140.557 Y97.916 E0.00902
G1 X140.707 Y97.831 E0.00541
G1 X141.018 Y97.731 E0.01023
G1 X141.313 Y97.714 E0.00926
G1 X141.621 Y97.776 E0.00986
G1 X141.903 Y97.915 E0.00987
G1 X142.140 Y98.122 E0.00987
G1 X142.316 Y98.384 E0.00987
G1 X142.418 Y98.681 E0.00987
G1 X142.441 Y98.995 E0.00987
G1 X142.386 Y99.285 E0.00924
G1 X135.467 Y120.156 E0.68943
G1 X133.482 Y122.776 E0.10306
G1 X133.169 Y123.338 E0.02017
G1 X133.015 Y123.741 E0.01351
G1 X132.907 Y124.161 E0.01360
G1 X132.837 Y124.800 E0.02017
G1 X132.851 Y125.231 E0.01353
G1 X132.978 Y126.127 E0.02836
G1 X132.981 Y126.602 E0.01489
G1 X132.922 Y127.069 E0.01477
G1 X132.868 Y127.307 E0.00766
G1 X132.718 Y127.754 E0.01477
G1 X132.511 Y128.177 E0.01477
G1 X132.245 Y128.578 E0.01509
G1 X131.937 Y128.930 E0.01466
G1 X131.759 Y129.098 E0.00766
G1 X131.389 Y129.383 E0.01466
G1 X131.182 Y129.512 E0.00766
G1 X130.762 Y129.719 E0.01466
G1 X130.534 Y129.805 E0.00766
G1 X130.085 Y129.925 E0.01456
G1 X128.902 Y130.131 E0.03766
G1 X127.716 Y130.280 E0.03746
G1 X126.525 Y130.373 E0.03746
G1 X125.331 Y130.410 E0.03746
G1 X124.138 Y130.391 E0.03742
G1 X123.507 Y130.358 E0.01980
G1 X122.350 Y130.257 E0.03642
G1 X121.166 Y130.098 E0.03745
G1 X119.991 Y129.884 E0.03746
G1 X118.828 Y129.614 E0.03744
G1 X117.964 Y129.375 E0.02810
G1 X117.108 Y129.108 E0.02810
G1 X115.985 Y128.704 E0.03744
G1 X114.881 Y128.248 E0.03746
G1 X113.799 Y127.740 E0.03746
G1 X112.744 Y127.182 E0.03742
G1 X112.224 Y126.883 E0.01881
G1 X111.211 Y126.253 E0.03742
G1 X110.228 Y125.575 E0.03746
G1 X109.277 Y124.851 E0.03746
G1 X108.362 Y124.084 E0.03746
G1 X107.484 Y123.275 E0.03742
G1 X107.058 Y122.853 E0.01881
G1 X106.240 Y121.984 E0.03742
G1 X105.462 Y121.077 E0.03746
G1 X104.728 Y120.135 E0.03746
G1 X104.040 Y119.160 E0.03742
G1 X103.712 Y118.658 E0.01881
G1 X103.095 Y117.637 E0.03742
G1 X102.525 Y116.587 E0.03746
G1 X102.005 Y115.511 E0.03746
G1 X101.537 Y114.412 E0.03746
G1 X101.121 Y113.292 E0.03746
G1 X100.758 Y112.155 E0.03742
G1 X100.592 Y111.565 E0.01921
G1 X100.542 Y111.243 E0.01022
G1 X100.562 Y110.904 E0.01066
G1 X100.653 Y110.576 E0.01066
G1 X100.812 Y110.275 E0.01066
G1 X101.030 Y110.015 E0.01066
G1 X101.299 Y109.806 E0.01066
G1 X101.606 Y109.660 E0.01066
G1 X101.931 Y109.582 E0.01049
G1 X102.108 Y109.569 E0.00555
G1 X102.300 Y109.578 E0.00605
G1 X102.611 Y109.640 E0.00993
G1 X102.970 Y109.797 E0.01229
G1 X117.579 Y126.217 E0.68911
G1 X117.982 Y126.630 E0.01808
G1 X118.415 Y127.003 E0.01794
G1 X118.649 Y127.177 E0.00912
G1 X119.120 Y127.483 E0.01761
G1 X119.625 Y127.750 E0.01794
G1 X119.881 Y127.865 E0.00879
G1 X120.421 Y128.063 E0.01801
G1 X120.690 Y128.142 E0.00879
G1 X121.250 Y128.267 E0.01802
G1 X121.527 Y128.310 E0.00879
G1 X122.100 Y128.359 E0.01801
G1 X122.665 Y128.357 E0.01772
G1 X123.237 Y128.303 E0.01801
G1 X123.514 Y128.259 E0.00879
G1 X124.071 Y128.130 E0.01794
G1 X124.615 Y127.952 E0.01794
G1 X124.875 Y127.847 E0.00879
G1 X125.391 Y127.598 E0.01794
G1 X125.880 Y127.306 E0.01787
G1 X126.341 Y126.971 E0.01787
G1 X126.772 Y126.595 E0.01794
G1 X126.970 Y126.397 E0.00879
G1 X127.347 Y125.966 E0.01794
G1 X127.683 Y125.506 E0.01787
G1 X127.977 Y125.017 E0.01787
G1 X128.228 Y124.498 E0.01808
G1 X134.500 Y109.955 E0.49659
G1 X134.826 Y109.283 E0.02341
G1 X135.096 Y108.610 E0.02275
G1 X135.413 Y107.571 E0.03406
G1 X135.565 Y106.860 E0.02280
G1 X135.668 Y106.142 E0.02275
G1 X135.722 Y105.418 E0.02275
G1 X135.725 Y104.693 E0.02275
G1 X135.679 Y103.967 E0.02280
G1 X135.623 Y103.479 E0.01541
G1 X135.393 Y103.087 F10800.000
;WIPE_START
G1 F8640.000
G1 X137.794 Y101.005 E-0.76000
;WIPE_END
M73 P2 R21
G1 E-0.04000 F2100.000
G1 Z0.600 F10800.000
G1 X118.621 Y97.123
G1 Z0.200
G1 E0.80000 F2100.000
;TYPE:Perimeter
G1 F1200.000
G1 X111.310 Y95.609 E0.23408
G1 X110.941 Y95.425 E0.01296
G1 X110.631 Y95.151 E0.01297
G1 X110.413 Y94.822 E0.01236
G1 X110.319 Y94.595 E0.00769
G1 X110.246 Y94.228 E0.01176
G1 X110.246 Y93.982 E0.00769
G1 X110.323 Y93.596 E0.01236
G1 X110.498 Y93.237 E0.01251
G1 X110.662 Y93.029 E0.00830
G1 X110.927 Y92.797 E0.01104
G1 X111.137 Y92.674 E0.00763
G1 X111.467 Y92.559 E0.01095
G1 X133.087 Y88.098 E0.69217
G1 X136.386 Y88.512 E0.10426
G1 X136.775 Y88.517 E0.01218
G1 X137.343 Y88.444 E0.01798
G1 X137.725 Y88.338 E0.01243
G1 X138.251 Y88.108 E0.01798
G1 X138.588 Y87.898 E0.01247
G1 X139.304 Y87.337 E0.02852
G1 X139.758 Y87.072 E0.01648
G1 X140.232 Y86.872 E0.01613
G1 X140.501 Y86.789 E0.00883
G1 X140.997 Y86.689 E0.01587
G1 X141.294 Y86.660 E0.00937
G1 X141.781 Y86.659 E0.01525
G1 X142.061 Y86.685 E0.00881
